<?xml version="1.0" encoding="UTF-8"?>
<map version="1.10" tiledversion="1.12.1" orientation="orthogonal" renderorder="right-down" width="30" height="20" tilewidth="16" tileheight="16" infinite="1" nextlayerid="6" nextobjectid="231">
 <tileset firstgid="1" name="zeo254-completed-commission" tilewidth="16" tileheight="16" tilecount="64" columns="8">
  <image source="../../../../Downloads/zeo254-completed-commission.png" trans="ff00ff" width="128" height="128"/>
 </tileset>
 <layer id="1" name="Tile Layer 1" width="30" height="20">
  <data encoding="csv">
   <chunk x="-16" y="-48" width="16" height="16">
4,4,4,4,4,4,4,4,4,4,4,4,4,4,4,4,
4,4,4,4,4,4,4,4,4,4,4,4,4,4,4,4,
4,4,4,4,4,4,4,4,4,4,4,4,4,4,4,4,
4,4,4,4,4,4,4,4,4,4,4,4,4,4,4,4,
4,4,4,4,4,4,4,4,4,4,4,4,4,4,4,4,
4,4,4,4,4,4,4,4,4,4,4,4,4,4,4,4,
4,4,4,4,4,4,4,4,4,4,4,4,4,4,4,4,
4,4,4,4,4,4,4,4,4,4,4,4,4,4,4,4,
4,4,4,4,4,4,4,4,4,4,4,4,4,4,4,4,
4,4,4,4,4,4,4,4,4,4,4,4,4,4,4,4,
4,4,4,4,4,4,4,4,4,4,4,4,4,4,4,4,
4,4,4,4,4,4,4,4,4,4,4,4,4,4,4,4,
4,4,4,4,4,4,4,4,4,4,4,4,4,4,4,4,
4,4,4,4,4,4,4,4,4,4,4,4,4,4,4,4,
4,4,4,4,4,4,4,4,4,4,4,4,4,4,4,4,
4,4,4,4,4,4,4,4,4,4,4,4,4,4,4,4
</chunk>
   <chunk x="0" y="-48" width="16" height="16">
4,4,4,4,4,4,4,4,4,4,4,4,4,4,4,4,
4,4,4,4,4,4,4,4,4,4,4,4,4,4,4,4,
4,4,4,4,4,4,4,4,4,4,4,4,4,4,4,4,
4,4,4,4,4,4,4,4,4,4,4,4,4,4,4,4,
4,4,4,4,4,4,4,4,4,4,4,4,4,4,4,4,
4,4,4,4,4,4,4,4,4,4,4,4,4,4,4,4,
4,4,4,4,4,4,4,4,4,4,4,4,4,4,4,4,
4,4,4,4,4,4,4,4,4,4,4,4,4,4,4,4,
4,4,4,4,4,4,4,4,4,4,4,4,4,4,4,4,
4,4,4,4,4,4,4,4,4,4,4,4,4,4,4,4,
4,4,4,4,4,4,4,4,4,4,4,4,4,4,4,4,
4,4,4,4,4,4,4,4,4,4,4,4,4,4,4,4,
4,4,4,4,4,4,4,4,4,4,4,4,4,4,4,4,
4,4,4,4,4,4,4,4,4,4,4,4,4,4,4,4,
4,4,4,4,4,4,4,4,4,4,4,4,4,4,4,4,
4,4,4,4,4,4,4,4,4,4,4,4,4,4,4,4
</chunk>
   <chunk x="16" y="-48" width="16" height="16">
4,4,4,4,4,4,4,4,4,4,4,4,4,4,4,4,
4,4,4,4,4,4,4,4,4,4,4,4,4,4,4,4,
4,4,4,4,4,4,4,4,4,4,4,4,4,4,4,4,
4,4,4,4,4,4,4,4,4,4,4,4,4,4,4,4,
4,4,4,4,4,4,4,4,4,4,4,4,4,4,4,4,
4,4,4,4,4,4,4,4,4,4,4,4,4,4,4,4,
4,4,4,4,4,4,4,4,4,4,4,4,4,4,4,4,
4,4,4,4,4,4,4,4,4,4,4,4,4,4,4,4,
4,4,4,4,4,4,4,4,4,4,4,4,4,4,4,4,
4,4,4,4,4,4,4,4,4,4,4,4,4,4,4,4,
4,4,4,4,4,4,4,4,4,4,4,4,4,4,4,4,
4,4,4,4,4,4,4,4,4,4,4,4,4,4,4,4,
4,4,4,4,4,4,4,4,4,4,4,4,4,4,4,4,
4,4,4,4,4,4,4,4,4,4,4,4,4,4,4,4,
4,4,4,4,4,4,4,4,4,4,4,4,4,4,4,4,
4,4,4,4,4,4,4,4,4,4,4,4,4,4,4,4
</chunk>
   <chunk x="32" y="-48" width="16" height="16">
4,4,4,4,4,4,4,4,4,4,4,4,4,4,4,4,
4,4,4,4,4,4,4,4,4,4,4,4,4,4,4,4,
4,4,4,4,4,4,4,4,4,4,4,4,4,4,4,4,
4,4,4,4,4,4,4,4,4,4,4,4,4,4,4,4,
4,4,4,4,4,4,4,4,4,4,4,4,4,4,4,4,
4,4,4,4,4,4,4,4,4,4,4,4,4,4,4,4,
4,4,4,4,4,4,4,4,4,4,4,4,4,4,4,4,
4,4,4,4,4,4,4,4,4,4,4,4,4,4,4,4,
4,4,4,4,4,4,4,4,4,4,4,4,4,4,4,4,
4,4,4,4,4,4,4,4,4,4,4,4,4,4,4,4,
4,4,4,4,4,4,4,4,4,4,4,4,4,4,4,4,
4,4,4,4,4,4,4,4,4,4,4,4,4,4,4,4,
4,4,4,4,4,4,4,4,4,4,4,4,4,4,4,4,
4,4,4,4,4,4,4,4,4,4,4,4,4,4,4,4,
4,4,4,4,4,4,4,4,4,4,4,4,4,4,4,4,
4,4,4,4,4,4,4,4,4,4,4,4,4,4,4,4
</chunk>
   <chunk x="48" y="-48" width="16" height="16">
4,4,4,4,4,4,4,4,4,4,4,4,4,4,4,4,
4,4,4,4,4,4,4,4,4,4,4,4,4,4,4,4,
4,4,4,4,4,4,4,4,4,4,4,4,4,4,4,4,
4,4,4,4,4,4,4,4,4,4,4,4,4,4,4,4,
4,4,4,4,4,4,4,4,4,4,4,4,4,4,4,4,
4,4,4,4,4,4,4,4,4,4,4,4,4,4,4,4,
4,4,4,4,4,4,4,4,4,4,4,4,4,4,4,4,
4,4,4,4,4,4,4,4,4,4,4,4,4,4,4,4,
4,4,4,4,4,4,4,4,4,4,4,4,4,4,4,4,
4,4,4,4,4,4,4,4,4,4,4,4,4,4,4,4,
4,4,4,4,4,4,4,4,4,4,4,4,4,4,4,4,
4,4,4,4,4,4,4,4,4,4,4,4,4,4,4,4,
4,4,4,4,4,4,4,4,4,4,4,4,4,4,4,4,
4,4,4,4,4,4,4,4,4,4,4,4,4,4,4,4,
4,4,4,4,4,4,4,4,4,4,4,4,4,4,4,4,
4,4,4,4,4,4,4,4,4,4,4,4,4,4,4,4
</chunk>
   <chunk x="64" y="-48" width="16" height="16">
4,4,4,4,4,4,4,4,4,4,4,4,4,4,4,4,
4,4,4,4,4,4,4,4,4,4,4,4,4,4,4,4,
4,4,4,4,4,4,4,4,4,4,4,4,4,4,4,4,
4,4,4,4,4,4,4,4,4,4,4,4,4,4,4,4,
4,4,4,4,4,4,4,4,4,4,4,4,4,4,4,4,
4,4,4,4,4,4,4,4,4,4,4,4,4,4,4,4,
4,4,4,4,4,4,4,4,4,4,4,4,4,4,4,4,
4,4,4,4,4,4,4,4,4,4,4,4,4,4,4,4,
4,4,4,4,4,4,4,4,4,4,4,4,4,4,4,4,
4,4,4,4,4,4,4,4,4,4,4,4,4,4,4,4,
4,4,4,4,4,4,4,4,4,4,4,4,4,4,4,4,
4,4,4,4,4,4,4,4,4,4,4,4,4,4,4,4,
4,4,4,4,4,4,4,4,4,4,4,4,4,4,4,4,
4,4,4,4,4,4,4,4,4,4,4,4,4,4,4,4,
4,4,4,4,4,4,4,4,4,4,4,4,4,4,4,4,
4,4,4,4,4,4,4,4,4,4,4,4,4,4,4,4
</chunk>
   <chunk x="-16" y="-32" width="16" height="16">
4,4,4,4,4,4,4,4,4,4,4,4,4,4,4,4,
4,4,4,4,4,4,4,4,4,4,4,4,4,4,4,4,
4,4,4,4,4,4,4,4,4,4,4,4,4,4,4,4,
4,4,4,4,4,4,4,4,4,4,4,4,4,4,4,4,
4,4,4,4,4,4,4,4,4,4,4,4,4,4,4,4,
4,4,4,4,4,4,4,4,4,4,4,4,4,4,4,4,
4,4,4,4,4,4,4,4,4,4,4,4,4,4,4,4,
4,4,4,4,4,4,4,4,4,4,4,4,4,4,4,4,
4,4,4,4,4,4,4,4,4,4,4,4,4,4,4,4,
4,4,4,4,4,4,4,4,4,4,4,4,4,4,4,4,
4,4,4,4,4,4,4,4,4,4,4,4,4,4,4,4,
4,4,4,4,4,4,4,4,4,4,4,4,4,4,4,4,
4,4,4,4,4,4,4,4,4,4,4,4,4,4,4,4,
4,4,4,4,4,4,4,4,4,4,4,4,4,4,4,4,
4,4,4,4,4,4,4,4,4,4,4,4,4,4,4,4,
4,4,4,4,4,4,4,4,4,4,4,4,4,4,4,4
</chunk>
   <chunk x="0" y="-32" width="16" height="16">
4,4,4,4,4,4,4,4,4,4,4,4,4,4,4,4,
4,4,4,4,4,4,4,4,4,4,4,4,4,4,4,4,
4,4,4,4,4,4,4,4,4,4,4,4,4,4,4,4,
4,4,4,4,4,4,4,4,4,4,4,4,4,4,4,4,
4,4,4,4,4,4,4,4,4,4,4,4,4,4,4,4,
4,4,4,4,4,4,4,4,4,4,4,4,4,4,4,4,
4,4,4,4,4,4,4,4,4,4,4,4,4,4,4,4,
4,4,4,4,4,4,4,4,4,4,4,4,4,4,4,4,
4,4,4,4,4,4,4,4,4,4,4,4,4,4,4,4,
4,4,4,4,4,4,4,4,4,4,4,4,4,4,4,4,
4,4,4,4,4,4,4,4,4,4,4,4,4,4,4,4,
4,4,4,4,4,4,4,4,4,4,4,4,4,4,4,4,
4,4,4,4,4,4,4,4,4,4,4,4,4,4,4,4,
4,4,4,4,4,4,4,4,4,4,4,4,4,4,4,4,
4,4,4,4,4,4,4,4,4,4,4,4,4,4,4,4,
4,4,4,4,4,4,4,4,4,4,4,4,4,4,4,4
</chunk>
   <chunk x="16" y="-32" width="16" height="16">
4,4,4,4,4,4,4,4,4,4,4,4,4,4,4,4,
4,4,4,4,4,4,4,4,4,4,4,4,4,4,4,4,
4,4,4,4,4,4,4,4,4,4,4,4,4,4,4,4,
4,4,4,4,4,4,4,4,4,4,4,4,4,4,4,4,
4,4,4,4,4,4,4,4,4,4,4,4,4,4,4,4,
4,4,4,4,4,4,4,4,4,4,4,4,4,4,4,4,
4,4,4,4,4,4,4,4,4,4,4,4,4,4,4,4,
4,4,4,4,4,4,4,4,4,4,4,4,4,4,4,4,
4,4,4,4,4,4,4,4,4,4,4,4,4,4,4,4,
4,4,4,4,4,4,4,4,4,4,4,4,4,4,4,4,
4,4,4,4,4,4,4,4,4,4,4,4,4,4,4,4,
4,4,4,4,4,4,4,4,4,4,4,4,4,4,4,4,
4,4,4,4,4,4,4,4,4,4,4,4,4,4,4,4,
4,4,4,4,4,4,4,4,4,4,4,4,4,4,4,4,
4,4,4,4,4,4,4,4,4,4,4,4,4,4,4,4,
4,4,4,4,4,4,4,4,4,4,4,4,4,4,4,4
</chunk>
   <chunk x="32" y="-32" width="16" height="16">
4,4,4,4,4,4,4,4,4,4,4,4,4,4,4,4,
4,4,4,4,4,4,4,4,4,4,4,4,4,4,4,4,
4,4,4,4,4,4,4,4,4,4,4,4,4,4,4,4,
4,4,4,4,4,4,4,4,4,4,4,4,4,4,4,4,
4,4,4,4,4,4,4,4,4,4,4,4,4,4,4,4,
4,4,4,4,4,4,4,4,4,4,4,4,4,4,4,4,
4,4,4,4,4,4,4,4,4,4,4,4,4,4,4,4,
4,4,4,4,4,4,4,4,4,4,4,4,4,4,4,4,
4,4,4,4,4,4,4,4,4,4,4,4,4,4,4,4,
4,4,4,4,4,4,4,4,4,4,4,4,4,4,4,4,
4,4,4,4,4,4,4,4,4,4,4,4,4,4,4,4,
4,4,4,4,4,4,4,4,4,4,4,4,4,4,4,4,
4,4,4,4,4,4,4,4,4,4,4,4,4,4,4,4,
4,4,4,4,4,4,4,4,4,4,4,4,4,4,4,4,
4,4,4,4,4,4,4,4,4,4,4,4,4,4,4,4,
4,4,4,4,4,4,4,4,4,4,4,4,4,4,4,4
</chunk>
   <chunk x="48" y="-32" width="16" height="16">
4,4,4,4,4,4,4,4,4,4,4,4,4,4,4,4,
4,4,4,4,4,4,4,4,4,4,4,4,4,4,4,4,
4,4,4,4,4,4,4,4,4,4,4,4,4,4,4,4,
4,4,4,4,4,4,4,4,4,4,4,4,4,4,4,4,
4,4,4,4,4,4,4,4,4,4,4,4,4,4,4,4,
4,4,4,4,4,4,4,4,4,4,4,4,4,4,4,4,
4,4,4,4,4,4,4,4,4,4,4,4,4,4,4,4,
4,4,4,4,4,4,4,4,4,4,4,4,4,4,4,4,
4,4,4,4,4,4,4,4,4,4,4,4,4,4,4,4,
4,4,4,4,4,4,4,4,4,4,4,4,4,4,4,4,
4,4,4,4,4,4,4,4,4,4,4,4,4,4,4,4,
4,4,4,4,4,4,4,4,4,4,4,4,4,4,4,4,
4,4,4,4,4,4,4,4,4,4,4,4,4,4,4,4,
4,4,4,4,4,4,4,4,4,4,4,4,4,4,4,4,
4,4,4,4,4,4,4,4,4,4,4,4,4,4,4,4,
4,4,4,4,4,4,4,4,4,4,4,4,4,4,4,4
</chunk>
   <chunk x="64" y="-32" width="16" height="16">
4,4,4,4,4,4,4,4,4,4,4,4,4,4,4,4,
4,4,4,4,4,4,4,4,4,4,4,4,4,4,4,4,
4,4,4,4,4,4,4,4,4,4,4,4,4,4,4,4,
4,4,4,4,4,4,4,4,4,4,4,4,4,4,4,4,
4,4,4,4,4,4,4,4,4,4,4,4,4,4,4,4,
4,4,4,4,4,4,4,4,4,4,4,4,4,4,4,4,
4,4,4,4,4,4,4,4,4,4,4,4,4,4,4,4,
4,4,4,4,4,4,4,4,4,4,4,4,4,4,4,4,
4,4,4,4,4,4,4,4,4,4,4,4,4,4,4,4,
4,4,4,4,4,4,4,4,4,4,4,4,4,4,4,4,
4,4,4,4,4,4,4,4,4,4,4,4,4,4,4,4,
4,4,4,4,4,4,4,4,4,4,4,4,4,4,4,4,
4,4,4,4,4,4,4,4,4,4,4,4,4,4,4,4,
4,4,4,4,4,4,4,4,4,4,4,4,4,4,4,4,
4,4,4,4,4,4,4,4,4,4,4,4,4,4,4,4,
4,4,4,4,4,4,4,4,4,4,4,4,4,4,4,4
</chunk>
   <chunk x="-16" y="-16" width="16" height="16">
4,4,4,4,4,4,4,4,4,4,4,4,4,4,4,4,
4,4,4,4,4,4,4,4,4,4,4,4,4,4,4,4,
4,4,4,4,4,4,4,4,4,4,4,4,4,4,4,4,
4,4,4,4,4,4,4,4,4,4,4,4,4,4,4,4,
4,4,4,4,4,4,4,4,4,4,4,4,4,4,4,4,
4,4,4,4,4,4,4,4,4,4,4,4,4,4,4,4,
4,4,4,4,4,4,4,4,4,4,4,4,4,4,4,4,
4,4,4,4,4,4,4,4,4,4,4,4,4,4,4,4,
4,4,4,14,14,14,14,14,14,14,14,14,14,14,14,14,
4,4,22,22,22,22,22,22,22,22,22,22,22,22,22,22,
4,4,22,22,22,22,22,22,22,22,22,22,22,22,22,22,
4,4,22,22,22,22,22,22,22,22,22,22,22,22,22,22,
4,4,22,22,22,22,22,22,22,22,22,22,22,22,22,22,
4,4,30,30,30,30,30,31,31,31,31,31,31,31,31,31,
4,4,4,4,4,4,4,4,4,4,4,4,4,4,4,4,
4,4,4,4,4,4,4,4,4,4,4,4,4,4,4,4
</chunk>
   <chunk x="0" y="-16" width="16" height="16">
4,4,4,4,4,4,4,4,4,4,4,4,4,4,4,4,
4,4,4,4,4,4,4,4,4,4,4,4,4,4,4,4,
4,4,4,4,4,4,4,4,22,22,22,22,4,4,4,4,
4,4,4,4,4,4,4,22,22,22,22,22,22,4,4,4,
4,4,4,4,4,4,22,22,46,22,22,46,22,22,4,4,
4,4,4,4,4,22,22,22,22,22,46,22,22,22,22,4,
4,4,4,4,4,22,22,46,22,22,22,22,22,46,22,4,
4,4,4,4,4,22,22,22,22,46,22,22,22,22,22,4,
14,14,14,14,14,22,22,22,22,22,22,22,22,22,22,4,
22,22,22,22,22,22,22,22,22,22,22,22,22,22,22,22,
22,22,22,22,22,22,22,22,22,22,22,22,22,22,22,22,
22,22,22,22,22,22,22,22,22,22,22,22,22,22,22,22,
22,22,22,22,22,22,22,22,22,22,22,22,22,22,22,22,
31,31,31,31,21,22,22,22,22,22,22,22,30,30,30,30,
4,4,4,4,21,22,22,22,22,22,22,24,4,4,4,4,
4,4,4,4,21,22,22,22,22,22,22,24,4,4,4,4
</chunk>
   <chunk x="16" y="-16" width="16" height="16">
4,4,4,4,4,4,4,4,4,4,4,4,4,4,4,4,
4,4,4,4,4,4,4,4,4,4,4,4,4,4,4,4,
4,4,4,4,4,4,4,4,4,4,4,4,4,4,4,4,
4,4,4,4,4,4,4,4,4,4,4,4,4,4,4,4,
4,4,4,4,4,4,4,4,4,4,4,4,4,4,4,4,
4,4,4,4,4,4,4,4,4,4,4,4,4,4,4,4,
4,4,4,4,4,4,4,4,4,4,4,4,4,4,4,4,
4,4,4,4,4,4,4,4,4,4,4,4,4,4,4,4,
4,4,4,13,14,14,14,14,14,14,14,14,14,14,14,14,
22,22,22,22,22,22,22,22,22,22,22,22,22,22,22,22,
22,22,22,22,22,22,22,22,22,22,22,22,22,22,22,22,
22,22,22,22,22,22,22,22,22,22,22,22,22,22,22,22,
22,22,22,31,31,31,31,31,31,31,31,4,4,4,4,4,
30,30,32,4,4,4,4,4,4,4,4,4,4,4,4,4,
4,4,4,4,4,4,4,4,4,4,4,4,4,4,4,4,
4,4,4,4,4,4,4,4,4,4,4,4,4,4,4,4
</chunk>
   <chunk x="32" y="-16" width="16" height="16">
4,4,4,4,4,4,4,4,4,4,4,4,4,4,4,4,
4,4,4,4,4,4,4,4,4,4,4,4,4,4,4,4,
4,4,4,4,4,4,4,4,4,4,4,4,4,4,4,4,
4,4,4,4,4,4,4,4,4,4,4,4,4,4,4,4,
4,4,4,4,4,4,4,4,4,4,4,4,4,4,4,4,
4,4,4,4,4,4,4,4,4,4,4,4,4,4,4,4,
4,4,4,4,4,4,4,4,4,4,4,4,4,4,4,4,
4,4,4,4,4,4,4,4,4,4,4,4,4,4,4,13,
14,14,14,14,14,14,14,14,14,14,14,14,14,14,14,22,
22,22,22,22,22,22,22,22,22,22,22,22,22,22,22,22,
22,22,22,22,22,22,22,22,22,22,22,22,22,22,22,22,
22,22,22,22,22,22,22,22,22,22,22,22,22,22,22,22,
29,30,30,30,30,30,30,30,30,30,30,30,30,30,30,22,
4,4,4,4,4,4,4,4,4,4,4,4,4,4,4,29,
4,4,4,4,4,4,4,4,4,4,4,4,4,4,4,4,
4,4,4,4,4,4,4,4,4,4,4,4,4,4,4,4
</chunk>
   <chunk x="48" y="-16" width="16" height="16">
4,4,4,13,14,14,14,14,14,14,14,14,15,15,16,4,
4,4,13,22,22,22,22,22,22,22,22,22,48,48,48,16,
4,13,22,22,22,22,22,22,22,22,22,22,22,22,48,48,
4,21,22,22,22,22,22,22,22,22,22,22,22,22,22,22,
4,21,22,22,22,22,22,22,22,22,22,22,22,22,22,22,
4,21,22,22,22,22,22,22,22,22,22,22,22,22,22,22,
13,22,22,22,22,22,22,22,22,22,22,22,22,22,22,22,
22,22,22,22,22,22,22,22,22,22,22,22,22,22,22,22,
22,22,22,22,22,22,22,22,22,22,22,22,22,22,22,22,
22,22,22,22,22,22,22,22,22,22,22,22,22,22,22,22,
22,22,22,22,22,22,22,22,22,22,22,22,22,22,22,22,
22,22,22,22,22,22,22,22,22,22,22,22,22,22,22,22,
22,22,22,22,22,22,22,22,22,22,22,22,22,22,22,22,
22,22,22,22,22,22,22,22,22,22,22,22,22,22,22,22,
29,22,22,22,22,22,22,22,22,22,22,22,22,22,22,22,
4,21,22,22,22,22,22,22,22,22,22,22,22,22,22,22
</chunk>
   <chunk x="64" y="-16" width="16" height="16">
4,4,4,4,4,4,4,4,4,4,4,4,4,4,4,4,
4,4,4,4,4,4,4,4,4,4,4,4,4,4,4,4,
16,4,4,4,4,4,4,4,4,4,4,4,4,4,4,4,
48,16,4,4,4,4,4,4,4,4,4,4,4,4,4,4,
22,22,16,4,4,4,4,4,4,4,4,4,4,4,4,4,
22,22,22,15,16,4,4,4,4,4,4,4,4,4,4,4,
22,22,22,22,22,16,4,4,4,4,4,4,4,4,4,4,
22,22,22,22,48,22,16,4,4,4,4,4,4,4,4,4,
22,22,22,22,48,48,24,4,4,4,4,4,4,4,4,4,
22,22,48,48,48,48,24,4,4,4,4,4,4,4,4,4,
22,48,48,22,22,48,32,4,4,4,4,4,4,4,4,4,
22,22,22,22,22,32,4,4,4,4,4,4,4,4,4,4,
22,22,22,22,32,4,4,4,4,4,4,4,4,4,4,4,
22,22,22,32,4,4,4,4,4,4,4,4,4,4,4,4,
22,22,32,4,4,4,4,4,4,4,4,4,4,4,4,4,
22,32,4,4,4,4,4,4,4,4,4,4,4,4,4,4
</chunk>
   <chunk x="-16" y="0" width="16" height="16">
4,4,4,4,4,4,4,4,4,4,4,4,4,4,4,4,
4,4,4,4,4,4,4,4,4,4,4,4,4,4,4,4,
4,4,4,4,4,4,4,4,4,4,4,4,4,4,4,4,
4,4,4,4,4,4,4,4,4,4,4,4,4,4,4,4,
4,4,4,4,4,4,4,4,4,4,4,4,4,4,4,4,
4,4,4,4,4,4,4,4,4,4,4,4,4,4,4,4,
4,4,4,4,4,4,4,4,4,4,4,4,4,4,4,4,
4,4,4,4,4,4,4,4,4,4,4,4,4,4,4,4,
4,4,4,4,4,4,4,4,4,4,4,4,4,4,4,4,
4,4,4,4,4,4,4,4,4,4,4,4,4,4,4,4,
4,4,4,4,4,4,4,4,4,4,4,4,4,4,4,4,
4,4,4,4,4,4,4,4,4,4,4,4,4,4,4,4,
4,4,4,4,4,4,4,4,4,4,4,4,4,4,4,4,
4,4,4,4,4,4,4,4,4,4,4,4,4,4,4,4,
4,4,4,4,4,4,4,4,4,4,4,4,4,4,4,4,
4,4,4,4,4,4,4,4,4,4,4,4,4,4,4,4
</chunk>
   <chunk x="0" y="0" width="16" height="16">
4,4,4,4,21,22,22,22,22,22,22,24,4,4,4,4,
4,4,4,4,21,22,22,22,22,22,22,24,4,4,4,4,
4,8,4,4,21,22,22,22,22,22,22,24,4,4,8,4,
4,4,4,4,21,22,22,22,22,22,22,24,4,4,4,4,
4,4,8,4,21,22,22,22,22,22,22,24,4,8,8,6,
6,4,8,4,21,22,22,22,22,22,22,24,4,8,4,8,
4,4,4,6,21,22,22,22,22,22,22,24,6,4,4,4,
4,6,4,4,21,22,22,22,22,22,22,24,4,4,4,4,
6,6,6,4,21,22,22,22,22,22,22,24,4,4,8,4,
6,4,6,4,21,22,22,22,22,22,22,24,4,6,4,6,
6,6,6,13,22,22,22,22,22,22,22,22,16,6,6,4,
4,6,13,22,46,22,22,22,22,46,22,22,22,16,6,4,
4,13,22,22,22,22,22,22,22,22,22,22,48,22,16,4,
4,21,48,22,22,46,22,22,22,22,22,22,22,22,24,4,
4,21,48,22,22,22,46,46,46,46,22,22,22,48,24,4,
4,29,30,31,31,31,31,31,31,31,31,31,31,31,32,4
</chunk>
   <chunk x="16" y="0" width="16" height="16">
4,4,4,4,4,4,4,4,4,4,4,4,4,4,4,4,
4,4,4,4,4,4,4,4,4,4,4,4,4,4,4,4,
4,4,4,4,4,4,4,4,4,4,4,4,4,4,4,4,
4,4,4,4,4,4,4,4,4,4,4,4,4,4,4,4,
4,4,4,4,4,4,4,4,4,4,4,4,4,4,4,4,
4,4,4,4,4,4,4,4,4,4,4,4,4,4,4,4,
4,4,4,4,4,4,4,4,4,4,4,4,4,4,4,4,
4,4,4,4,4,4,4,4,4,4,4,4,4,4,4,4,
4,4,4,4,4,4,4,4,4,4,4,4,4,4,4,4,
4,4,4,4,4,4,4,4,4,4,4,4,4,4,4,4,
4,4,4,4,4,4,4,4,4,4,4,4,4,4,4,4,
4,4,4,4,4,4,4,4,4,4,4,4,4,4,4,4,
4,4,4,4,4,4,4,4,4,4,4,4,4,4,4,4,
4,4,4,4,4,4,4,4,4,4,4,4,4,4,4,4,
4,4,4,4,4,4,4,4,4,4,4,4,4,4,4,4,
4,4,4,4,4,4,4,4,4,4,4,4,4,4,4,4
</chunk>
   <chunk x="32" y="0" width="16" height="16">
4,4,4,4,4,4,4,4,4,4,4,4,4,4,4,4,
4,4,4,4,4,4,4,4,4,4,4,4,4,4,4,4,
4,4,4,4,4,4,4,4,4,4,4,4,4,4,4,4,
4,4,4,4,4,4,4,4,4,4,4,4,4,4,4,4,
4,4,4,4,4,4,4,4,4,4,4,4,4,4,4,4,
4,4,4,4,4,4,4,4,4,4,4,4,4,4,4,4,
4,4,4,4,4,4,4,4,4,4,4,4,4,4,4,4,
4,4,4,4,4,4,4,4,4,4,4,4,4,4,4,4,
4,4,4,4,4,4,4,4,4,4,4,4,4,4,4,4,
4,4,4,4,4,4,4,4,4,4,4,4,4,4,4,4,
4,4,4,4,4,4,4,4,4,4,4,4,4,4,4,4,
4,4,4,4,4,4,4,4,4,4,4,4,4,4,4,4,
4,4,4,4,4,4,4,4,4,4,4,4,4,4,4,4,
4,4,4,4,4,4,4,4,4,4,4,4,4,4,4,4,
4,4,4,4,4,4,4,4,4,4,4,4,4,4,4,4,
4,4,4,4,4,4,4,4,4,4,4,4,4,4,4,4
</chunk>
   <chunk x="48" y="0" width="16" height="16">
4,29,22,22,22,22,22,22,22,22,22,22,22,22,22,22,
4,4,29,30,30,30,30,30,30,30,30,30,30,30,30,30,
4,4,4,4,4,4,4,4,4,4,4,4,4,4,4,4,
4,4,4,4,4,4,4,4,4,4,4,4,4,4,4,4,
4,4,4,4,4,4,4,4,4,4,4,4,4,4,4,4,
4,4,4,4,4,4,4,4,4,4,4,4,4,4,4,4,
4,4,4,4,4,4,4,4,4,4,4,4,4,4,4,4,
4,4,4,4,4,4,4,4,4,4,4,4,4,4,4,4,
4,4,4,4,4,4,4,4,4,4,4,4,4,4,4,4,
4,4,4,4,4,4,4,4,4,4,4,4,4,4,4,4,
4,4,4,4,4,4,4,4,4,4,4,4,4,4,4,4,
4,4,4,4,4,4,4,4,4,4,4,4,4,4,4,4,
4,4,4,4,4,4,4,4,4,4,4,4,4,4,4,4,
4,4,4,4,4,4,4,4,4,4,4,4,4,4,4,4,
4,4,4,4,4,4,4,4,4,4,4,4,4,4,4,4,
4,4,4,4,4,4,4,4,4,4,4,4,4,4,4,4
</chunk>
   <chunk x="64" y="0" width="16" height="16">
24,4,4,4,4,4,4,4,4,4,4,4,4,4,4,4,
32,4,4,4,4,4,4,4,4,4,4,4,4,4,4,4,
4,4,4,4,4,4,4,4,4,4,4,4,4,4,4,4,
4,4,4,4,4,4,4,4,4,4,4,4,4,4,4,4,
4,4,4,4,4,4,4,4,4,4,4,4,4,4,4,4,
4,4,4,4,4,4,4,4,4,4,4,4,4,4,4,4,
4,4,4,4,4,4,4,4,4,4,4,4,4,4,4,4,
4,4,4,4,4,4,4,4,4,4,4,4,4,4,4,4,
4,4,4,4,4,4,4,4,4,4,4,4,4,4,4,4,
4,4,4,4,4,4,4,4,4,4,4,4,4,4,4,4,
4,4,4,4,4,4,4,4,4,4,4,4,4,4,4,4,
4,4,4,4,4,4,4,4,4,4,4,4,4,4,4,4,
4,4,4,4,4,4,4,4,4,4,4,4,4,4,4,4,
4,4,4,4,4,4,4,4,4,4,4,4,4,4,4,4,
4,4,4,4,4,4,4,4,4,4,4,4,4,4,4,4,
4,4,4,4,4,4,4,4,4,4,4,4,4,4,4,4
</chunk>
  </data>
 </layer>
 <objectgroup id="4" name="Object Layer 1">
  <object id="8" gid="36" x="217" y="180.333" width="16" height="16"/>
  <object id="9" gid="36" x="236.333" y="183.667" width="16" height="16"/>
  <object id="10" gid="36" x="240" y="204.333" width="16" height="16"/>
  <object id="11" gid="36" x="224.667" y="197" width="16" height="16"/>
  <object id="12" gid="36" x="236.333" y="219.333" width="16" height="16"/>
  <object id="13" gid="36" x="240.333" y="237" width="16" height="16"/>
  <object id="14" gid="36" x="238.333" y="255.333" width="16" height="16"/>
  <object id="15" gid="36" x="4.33333" y="254.667" width="16" height="16"/>
  <object id="16" gid="36" x="-0.333333" y="239.333" width="16" height="16"/>
  <object id="17" gid="36" x="6" y="226.667" width="16" height="16"/>
  <object id="18" gid="36" x="-1.66667" y="208.667" width="16" height="16"/>
  <object id="19" gid="36" x="11" y="199.667" width="16" height="16"/>
  <object id="20" gid="36" x="27.3333" y="189.667" width="16" height="16"/>
  <object id="21" gid="36" x="38.3333" y="180.333" width="16" height="16"/>
  <object id="22" gid="36" x="22.6667" y="176.333" width="16" height="16"/>
  <object id="23" gid="36" x="7" y="186.333" width="16" height="16"/>
  <object id="24" gid="36" x="0" y="168" width="16" height="16"/>
  <object id="31" gid="36" x="199.5" y="107" width="16" height="16"/>
  <object id="32" gid="36" x="2.75" y="101.5" width="16" height="16"/>
  <object id="33" gid="36" x="44" y="158.25" width="16" height="16"/>
  <object id="34" gid="36" x="197.75" y="25" width="16" height="16"/>
  <object id="35" gid="36" x="236" y="23.75" width="16" height="16"/>
  <object id="36" gid="36" x="198.75" y="42.75" width="16" height="16"/>
  <object id="37" gid="36" x="8.75" y="18" width="16" height="16"/>
  <object id="38" gid="36" x="219.333" y="33" width="16" height="16"/>
  <object id="39" gid="36" x="15.6667" y="28" width="16" height="16"/>
  <object id="40" gid="36" x="42.3333" y="34.3333" width="16" height="16"/>
  <object id="41" gid="36" x="47.6667" y="52.6667" width="16" height="16"/>
  <object id="42" gid="36" x="51.3333" y="72" width="16" height="16"/>
  <object id="43" gid="36" x="46.3333" y="92.6667" width="16" height="16"/>
  <object id="44" gid="36" x="36" y="105.333" width="16" height="16"/>
  <object id="45" gid="36" x="49" y="128.333" width="16" height="16"/>
  <object id="46" gid="36" x="204" y="162.667" width="16" height="16"/>
  <object id="47" gid="36" x="191" y="146.333" width="16" height="16"/>
  <object id="48" gid="36" x="193.333" y="126.333" width="16" height="16"/>
  <object id="49" gid="36" x="193" y="88" width="16" height="16"/>
  <object id="50" gid="36" x="234" y="101" width="16" height="16"/>
  <object id="51" gid="36" x="242.333" y="104" width="16" height="16"/>
  <object id="52" gid="36" x="192.667" y="64" width="16" height="16"/>
  <object id="53" gid="36" x="237.667" y="33" width="16" height="16"/>
  <object id="54" gid="36" x="2.33333" y="34" width="16" height="16"/>
  <object id="55" gid="36" x="23.6667" y="34.6667" width="16" height="16"/>
  <object id="56" gid="36" x="35.3333" y="17.3333" width="16" height="16"/>
  <object id="57" gid="36" x="-0.666667" y="194" width="16" height="16"/>
  <object id="58" gid="36" x="232" y="170" width="16" height="16"/>
  <object id="59" gid="36" x="243.667" y="162" width="16" height="16"/>
  <object id="60" gid="36" x="52.3333" y="141.667" width="16" height="16"/>
  <object id="61" gid="36" x="49.6667" y="110.333" width="16" height="16"/>
  <object id="62" gid="36" x="37" y="43.6667" width="16" height="16"/>
  <object id="63" gid="36" x="50" y="18" width="16" height="16"/>
  <object id="64" gid="36" x="224" y="-180.25" width="16" height="16"/>
  <object id="65" gid="36" x="237.5" y="-172.25" width="16" height="16"/>
  <object id="66" gid="36" x="215.5" y="-191" width="16" height="16"/>
  <object id="67" gid="36" x="227.5" y="-203.5" width="16" height="16"/>
  <object id="68" gid="36" x="168" y="-228.5" width="16" height="16"/>
  <object id="69" gid="36" x="142.75" y="-237.5" width="16" height="16"/>
  <object id="70" gid="36" x="137" y="-224" width="16" height="16"/>
  <object id="71" gid="36" x="80" y="-191.75" width="16" height="16"/>
  <object id="72" gid="36" x="70.75" y="-168.25" width="16" height="16"/>
  <object id="73" gid="36" x="15.75" y="-117" width="16" height="16"/>
  <object id="74" gid="36" x="15" y="-150.5" width="16" height="16"/>
  <object id="75" gid="36" x="25.25" y="-171" width="16" height="16"/>
  <object id="76" gid="36" x="10" y="-199.25" width="16" height="16"/>
  <object id="77" gid="36" x="20.25" y="-226.75" width="16" height="16"/>
  <object id="78" gid="36" x="45" y="-236.25" width="16" height="16"/>
  <object id="79" gid="36" x="65.25" y="-238.5" width="16" height="16"/>
  <object id="80" gid="36" x="282.5" y="-168.5" width="16" height="16"/>
  <object id="81" gid="36" x="292" y="-140.5" width="16" height="16"/>
  <object id="82" gid="36" x="289.5" y="-111.5" width="16" height="16"/>
  <object id="83" gid="36" x="290" y="-188.5" width="16" height="16"/>
  <object id="84" gid="36" x="285.5" y="-217" width="16" height="16"/>
  <object id="85" gid="36" x="243" y="-235.5" width="16" height="16"/>
  <object id="86" gid="36" x="276" y="-236" width="16" height="16"/>
  <object id="87" gid="36" x="-25.25" y="56.5" width="16" height="16"/>
  <object id="88" gid="36" x="-21.5" y="31.5" width="16" height="16"/>
  <object id="89" gid="36" x="-52.5" y="24.5" width="16" height="16"/>
  <object id="90" gid="36" x="-72.5" y="48.5" width="16" height="16"/>
  <object id="91" gid="36" x="-46.75" y="48.25" width="16" height="16"/>
  <object id="92" gid="36" x="-73" y="26.25" width="16" height="16"/>
  <object id="93" gid="36" x="-59" y="36.25" width="16" height="16"/>
  <object id="94" gid="36" x="-53" y="73.25" width="16" height="16"/>
  <object id="95" gid="36" x="-26.5" y="76.5" width="16" height="16"/>
  <object id="96" gid="36" x="-35.25" y="29.25" width="16" height="16"/>
  <object id="97" gid="36" x="-18.7273" y="45.6364" width="16" height="16"/>
  <object id="98" gid="36" x="-58.9091" y="54.5455" width="16" height="16"/>
  <object id="99" gid="36" x="-40.5455" y="60.5455" width="16" height="16"/>
  <object id="100" gid="36" x="-18.1818" y="65.4545" width="16" height="16"/>
  <object id="101" gid="36" x="-38.5455" y="76.3636" width="16" height="16"/>
  <object id="102" gid="36" x="307" y="17.3333" width="16" height="16"/>
  <object id="103" gid="36" x="342.333" y="6" width="16" height="16"/>
  <object id="104" gid="36" x="328.333" y="28.3333" width="16" height="16"/>
  <object id="105" gid="36" x="313.333" y="53.3333" width="16" height="16"/>
  <object id="106" gid="36" x="310" y="35.3333" width="16" height="16"/>
  <object id="107" gid="36" x="304.333" y="76" width="16" height="16"/>
  <object id="108" gid="36" x="330.333" y="58.6667" width="16" height="16"/>
  <object id="109" gid="36" x="368.333" y="79.3333" width="16" height="16"/>
  <object id="110" gid="36" x="400.333" y="61" width="16" height="16"/>
  <object id="111" gid="36" x="432" y="83.3333" width="16" height="16"/>
  <object id="112" gid="36" x="458.667" y="65.6667" width="16" height="16"/>
  <object id="113" gid="36" x="473" y="50.3333" width="16" height="16"/>
  <object id="114" gid="36" x="444.333" y="2" width="16" height="16"/>
  <object id="115" gid="36" x="375.667" y="-1.66667" width="16" height="16"/>
  <object id="116" gid="36" x="398.667" y="9" width="16" height="16"/>
  <object id="117" gid="36" x="435" y="-15.3333" width="16" height="16"/>
  <object id="118" gid="36" x="415.667" y="0.666667" width="16" height="16"/>
  <object id="119" gid="36" x="474.667" y="33.6667" width="16" height="16"/>
  <object id="120" gid="36" x="492" y="31" width="16" height="16"/>
  <object id="121" gid="36" x="492.333" y="69.3333" width="16" height="16"/>
  <object id="122" gid="36" x="497" y="119" width="16" height="16"/>
  <object id="123" gid="36" x="436.333" y="137.667" width="16" height="16"/>
  <object id="124" gid="36" x="366" y="140.333" width="16" height="16"/>
  <object id="125" gid="36" x="368.667" y="190.333" width="16" height="16"/>
  <object id="126" gid="36" x="295" y="140.333" width="16" height="16"/>
  <object id="127" gid="36" x="309.333" y="139.333" width="16" height="16"/>
  <object id="128" gid="36" x="426" y="130.667" width="16" height="16"/>
  <object id="129" gid="36" x="432.909" y="256.727" width="16" height="16"/>
  <object id="130" gid="36" x="494" y="204" width="16" height="16"/>
  <object id="131" gid="36" x="294.333" y="202.333" width="16" height="16"/>
  <object id="132" gid="36" x="-111.333" y="127.333" width="16" height="16"/>
  <object id="133" gid="36" x="-80" y="144" width="16" height="16"/>
  <object id="134" gid="36" x="-78.6667" y="180" width="16" height="16"/>
  <object id="135" gid="36" x="-72.6667" y="201.333" width="16" height="16"/>
  <object id="136" gid="36" x="-144" y="198" width="16" height="16"/>
  <object id="137" gid="36" x="-134.667" y="227.333" width="16" height="16"/>
  <object id="138" gid="36" x="-148" y="248" width="16" height="16"/>
  <object id="139" gid="36" x="-205.333" y="144" width="16" height="16"/>
  <object id="140" gid="36" x="-241.333" y="110.667" width="16" height="16"/>
  <object id="141" gid="36" x="-240.667" y="83.3333" width="16" height="16"/>
  <object id="142" gid="36" x="-208.667" y="62" width="16" height="16"/>
  <object id="143" gid="36" x="-172" y="86" width="16" height="16"/>
  <object id="144" gid="36" x="-144.667" y="3.33333" width="16" height="16"/>
  <object id="145" gid="36" x="-66.6667" y="-11.3333" width="16" height="16"/>
  <object id="146" gid="36" x="-119.333" y="-27.3333" width="16" height="16"/>
  <object id="147" gid="36" x="-78" y="-25.3333" width="16" height="16"/>
  <object id="148" gid="36" x="-112.667" y="-12" width="16" height="16"/>
  <object id="150" gid="35" x="1026.67" y="-230" width="16" height="16"/>
  <object id="151" gid="35" x="746" y="-17.3333" width="16" height="16"/>
  <object id="152" gid="35" x="758" y="32.6667" width="16" height="16"/>
  <object id="153" gid="35" x="827.333" y="73.3333" width="16" height="16"/>
  <object id="154" gid="35" x="1036" y="75.3333" width="16" height="16"/>
  <object id="155" gid="35" x="1061.33" y="24" width="16" height="16"/>
  <object id="156" gid="35" x="1118" y="12" width="16" height="16"/>
  <object id="157" gid="35" x="1104" y="-18.6667" width="16" height="16"/>
  <object id="158" gid="35" x="1142" y="-34.6667" width="16" height="16"/>
  <object id="159" gid="35" x="1136" y="-70.6667" width="16" height="16"/>
  <object id="160" gid="35" x="1172" y="-99.3333" width="16" height="16"/>
  <object id="161" gid="35" x="1145.33" y="-153.333" width="16" height="16"/>
  <object id="162" gid="35" x="1114.67" y="-182.667" width="16" height="16"/>
  <object id="163" gid="35" x="1081.33" y="-201.333" width="16" height="16"/>
  <object id="164" gid="35" x="940.667" y="-266.667" width="16" height="16"/>
  <object id="165" gid="35" x="846.667" y="-271.333" width="16" height="16"/>
  <object id="166" gid="35" x="762.667" y="-251.333" width="16" height="16"/>
  <object id="167" gid="35" x="766" y="-212" width="16" height="16"/>
  <object id="168" gid="35" x="722" y="-196" width="16" height="16"/>
  <object id="169" gid="35" x="760.667" y="-178.667" width="16" height="16"/>
  <object id="170" gid="35" x="706.667" y="-165.333" width="16" height="16"/>
  <object id="171" gid="35" x="746" y="-152" width="16" height="16"/>
  <object id="172" gid="35" x="716.667" y="-2" width="16" height="16"/>
  <object id="173" gid="35" x="800.667" y="56.6667" width="16" height="16"/>
  <object id="174" gid="35" x="858" y="57.3333" width="16" height="16"/>
  <object id="175" gid="35" x="904.667" y="58" width="16" height="16"/>
  <object id="176" gid="35" x="968" y="59.3333" width="16" height="16"/>
  <object id="177" gid="35" x="1019.33" y="56.6667" width="16" height="16"/>
  <object id="178" gid="35" x="894" y="-270" width="16" height="16"/>
  <object id="179" gid="35" x="802.667" y="-260" width="16" height="16"/>
  <object id="180" gid="35" x="973.333" y="-266.667" width="16" height="16"/>
  <object id="181" gid="35" x="999.333" y="-267.333" width="16" height="16"/>
  <object id="182" gid="35" x="1040" y="-255.333" width="16" height="16"/>
  <object id="183" gid="35" x="1058" y="-216" width="16" height="16"/>
  <object id="184" gid="35" x="1076" y="-183.333" width="16" height="16"/>
  <object id="185" gid="35" x="1103.33" y="-175.333" width="16" height="16"/>
  <object id="186" gid="35" x="1119.33" y="-152" width="16" height="16"/>
  <object id="187" gid="35" x="1144.67" y="-118" width="16" height="16"/>
  <object id="188" gid="35" x="1153.33" y="-82.6667" width="16" height="16"/>
  <object id="189" gid="35" x="1079.33" y="-1.33333" width="16" height="16"/>
  <object id="190" gid="35" x="1092.67" y="24.6667" width="16" height="16"/>
  <object id="191" gid="35" x="717.333" y="-24" width="16" height="16"/>
  <object id="192" gid="35" x="542" y="-27.3333" width="16" height="16"/>
  <object id="193" gid="35" x="586.667" y="-26" width="16" height="16"/>
  <object id="194" gid="35" x="630.667" y="-27.3333" width="16" height="16"/>
  <object id="195" gid="35" x="682.667" y="-32" width="16" height="16"/>
  <object id="196" gid="35" x="705.333" y="-138" width="16" height="16"/>
  <object id="197" gid="35" x="670" y="-137.333" width="16" height="16"/>
  <object id="198" gid="35" x="612.667" y="-138" width="16" height="16"/>
  <object id="199" gid="35" x="578.667" y="-135.333" width="16" height="16"/>
  <object id="200" gid="35" x="546" y="-136.667" width="16" height="16"/>
  <object id="201" gid="35" x="923" y="-286.5" width="16" height="16"/>
  <object id="202" gid="35" x="921" y="-261.5" width="16" height="16"/>
  <object id="203" gid="35" x="867" y="-258" width="16" height="16"/>
  <object id="204" gid="35" x="871" y="-285.5" width="16" height="16"/>
  <object id="205" gid="35" x="828" y="-268.5" width="16" height="16"/>
  <object id="206" gid="35" x="785" y="-237" width="16" height="16"/>
  <object id="207" gid="35" x="778" y="-272" width="16" height="16"/>
  <object id="208" gid="35" x="748" y="-229" width="16" height="16"/>
  <object id="209" gid="35" x="741.5" y="-193" width="16" height="16"/>
  <object id="210" gid="35" x="732.5" y="-167" width="16" height="16"/>
  <object id="211" gid="35" x="728.5" y="-135" width="16" height="16"/>
  <object id="212" gid="35" x="1020.5" y="-249.5" width="16" height="16"/>
  <object id="213" gid="35" x="1052.5" y="-236" width="16" height="16"/>
  <object id="214" gid="35" x="1039" y="-215.5" width="16" height="16"/>
  <object id="215" gid="35" x="1084.5" y="-223.5" width="16" height="16"/>
  <object id="216" gid="35" x="1120.5" y="-211" width="16" height="16"/>
  <object id="217" gid="35" x="1101.5" y="-199.5" width="16" height="16"/>
  <object id="218" gid="35" x="1130.5" y="-188.5" width="16" height="16"/>
  <object id="219" gid="35" x="1134.5" y="-172" width="16" height="16"/>
  <object id="220" gid="35" x="1161.5" y="-173" width="16" height="16"/>
  <object id="221" gid="35" x="1114.5" y="-42" width="16" height="16"/>
  <object id="222" gid="35" x="1142" y="-53" width="16" height="16"/>
  <object id="223" gid="35" x="1055" y="5" width="16" height="16"/>
  <object id="224" gid="35" x="1041.5" y="20.5" width="16" height="16"/>
  <object id="225" gid="35" x="1001" y="43.5" width="16" height="16"/>
  <object id="226" gid="35" x="958.5" y="44.5" width="16" height="16"/>
  <object id="227" gid="35" x="931.5" y="45.5" width="16" height="16"/>
  <object id="228" gid="35" x="895" y="45.5" width="16" height="16"/>
  <object id="229" gid="35" x="847.5" y="45.5" width="16" height="16"/>
  <object id="230" gid="35" x="873" y="46" width="16" height="16"/>
 </objectgroup>
 <layer id="5" name="Top Layer" width="30" height="20">
  <data encoding="csv">
   <chunk x="0" y="-32" width="16" height="16">
0,0,0,0,0,0,0,0,0,0,0,0,0,0,0,0,
0,0,0,0,0,0,0,0,0,0,0,0,0,0,0,0,
0,0,0,0,0,0,0,0,0,0,0,0,0,0,0,0,
0,0,0,0,0,0,0,0,0,0,0,0,0,0,0,0,
0,0,0,0,0,0,0,0,0,0,0,0,0,0,0,0,
0,0,0,0,0,0,0,0,0,0,0,0,0,0,0,0,
0,0,0,0,0,0,0,0,0,0,0,0,0,0,0,0,
0,0,0,0,0,0,0,0,0,0,0,0,0,0,0,0,
0,0,0,0,0,0,0,0,0,0,0,0,0,0,0,0,
0,0,0,0,0,0,0,0,0,0,0,0,0,0,0,0,
0,0,0,0,0,0,0,0,0,0,0,0,0,0,0,0,
0,0,0,0,0,0,0,0,0,0,0,0,0,0,0,0,
0,0,0,0,0,0,0,0,0,0,0,0,0,0,0,0,
0,0,0,0,0,0,0,0,0,0,0,0,0,0,0,0,
0,0,0,0,0,0,0,0,0,0,0,0,0,0,0,0,
0,0,0,0,0,1,2,3,0,0,0,0,1,2,3,0
</chunk>
   <chunk x="32" y="-32" width="16" height="16">
0,0,0,0,0,0,0,0,0,0,0,0,0,0,0,0,
0,0,0,0,0,0,0,0,0,0,0,0,0,0,0,0,
0,0,0,0,0,0,0,0,0,0,0,0,0,0,0,0,
0,0,0,0,0,0,0,0,0,0,0,0,0,0,0,0,
0,0,0,0,0,0,0,0,0,0,0,0,0,0,0,0,
0,0,0,0,0,0,0,0,0,0,0,0,0,0,0,0,
0,0,0,0,0,0,0,0,0,0,0,0,0,0,0,0,
0,0,0,0,0,0,0,0,0,0,0,0,0,0,0,0,
0,0,0,0,0,0,0,0,0,1,2,3,0,0,0,0,
0,0,0,0,0,0,0,0,0,9,10,11,0,0,0,0,
0,0,0,0,0,0,0,0,0,17,18,19,0,1,2,3,
0,0,0,0,0,0,0,0,0,25,26,27,0,9,10,11,
0,0,0,0,1,2,3,0,0,0,0,0,0,17,18,19,
0,0,0,0,9,10,11,0,0,0,0,0,0,25,26,27,
0,0,0,0,17,18,19,0,0,0,1,2,3,0,0,0,
0,0,0,0,25,26,27,0,0,0,9,10,11,0,0,0
</chunk>
   <chunk x="48" y="-32" width="16" height="16">
0,0,0,0,0,0,0,0,0,0,0,0,0,0,0,0,
0,0,0,0,0,0,0,0,0,0,0,0,0,0,0,0,
0,0,0,0,0,0,0,0,0,0,0,0,0,0,0,0,
0,0,0,0,0,0,0,0,0,0,0,0,0,0,0,0,
0,0,0,0,0,0,0,0,0,0,0,0,0,0,0,0,
0,0,0,1,2,3,0,0,0,0,0,0,0,0,0,0,
0,0,0,9,10,11,0,0,0,0,0,1,2,3,0,0,
0,0,0,17,18,19,0,0,0,0,0,9,10,11,0,0,
0,0,0,25,26,27,0,0,0,0,0,17,18,19,0,0,
0,0,0,0,0,0,0,1,2,3,0,25,26,27,0,0,
0,0,1,2,3,0,0,9,10,11,0,0,0,0,1,2,
0,0,9,10,11,0,0,17,18,19,0,0,0,0,9,10,
0,0,17,18,19,0,0,25,26,27,0,0,0,0,17,18,
0,0,25,26,27,0,0,0,0,0,0,0,0,0,25,26,
0,0,0,0,0,0,0,0,0,0,0,0,0,0,0,0,
0,0,0,0,0,0,0,0,0,0,0,0,0,0,0,0
</chunk>
   <chunk x="64" y="-32" width="16" height="16">
0,0,0,0,0,0,0,0,0,0,0,0,0,0,0,0,
0,0,0,0,0,0,0,0,0,0,0,0,0,0,0,0,
0,0,0,0,0,0,0,0,0,0,0,0,0,0,0,0,
0,0,0,0,0,0,0,0,0,0,0,0,0,0,0,0,
0,0,0,0,0,0,0,0,0,0,0,0,0,0,0,0,
0,0,0,0,0,0,0,0,0,0,0,0,0,0,0,0,
0,1,2,3,0,0,0,0,0,0,0,0,0,0,0,0,
0,9,10,11,0,0,0,0,0,0,0,0,0,0,0,0,
0,17,18,19,0,0,0,0,0,0,0,0,0,0,0,0,
0,25,26,27,0,0,0,1,2,3,0,0,0,0,0,0,
3,0,0,0,0,0,0,9,10,11,0,0,0,0,0,0,
11,1,2,3,0,0,0,17,18,19,0,0,0,0,0,0,
19,9,10,11,0,0,0,25,26,27,0,0,0,0,0,0,
27,17,18,19,1,2,3,0,0,0,0,0,0,0,0,0,
0,25,26,27,9,10,11,0,0,0,0,0,0,0,0,0,
0,0,0,0,17,18,19,0,1,2,3,0,0,0,0,0
</chunk>
   <chunk x="-16" y="-16" width="16" height="16">
0,0,0,0,0,0,0,0,0,0,0,0,0,0,0,0,
0,0,0,0,0,0,0,0,0,0,0,0,0,0,0,0,
0,0,0,0,0,0,0,0,0,0,0,0,0,0,0,0,
0,0,0,0,0,0,0,0,0,0,0,0,0,0,0,0,
0,0,0,0,0,0,0,0,0,0,0,0,0,0,0,0,
0,0,0,0,0,0,0,0,0,0,0,0,0,0,0,0,
0,0,0,0,0,0,0,0,0,0,0,0,0,0,0,0,
0,0,0,0,0,0,0,0,0,0,0,0,0,0,0,0,
0,0,0,0,0,0,0,0,0,0,0,0,0,0,0,0,
0,0,0,0,0,0,0,0,0,0,0,0,0,0,0,0,
0,0,0,0,0,0,0,0,0,0,0,0,0,0,0,0,
0,0,0,0,0,0,0,0,0,0,0,0,0,0,0,0,
0,0,0,0,0,0,0,0,0,0,0,0,0,1,2,3,
0,0,0,0,0,0,0,0,0,0,0,0,0,9,10,11,
0,0,0,0,0,0,0,0,0,0,0,0,0,17,18,19,
0,0,0,0,0,0,0,0,0,0,0,0,0,25,26,27
</chunk>
   <chunk x="0" y="-16" width="16" height="16">
0,0,0,0,0,9,10,11,0,0,0,0,9,10,11,0,
0,0,1,2,3,17,18,19,0,0,0,0,17,18,19,1,
0,0,9,10,11,25,26,27,0,0,0,0,25,26,27,9,
0,0,17,18,19,0,0,0,0,0,0,0,0,0,0,17,
0,0,25,26,27,0,0,0,0,0,0,0,0,0,0,25,
0,0,1,2,3,0,0,0,0,0,0,0,0,0,0,1,
0,0,9,10,11,0,0,0,0,0,0,0,0,0,0,9,
0,0,17,18,19,0,0,0,0,0,0,0,0,0,0,17,
0,0,25,26,27,0,0,0,0,0,0,0,0,0,0,25,
0,0,0,0,0,0,0,0,0,0,0,0,0,0,0,0,
0,0,0,0,0,0,0,0,0,0,0,0,0,0,0,0,
0,0,0,0,0,0,0,0,0,0,0,0,0,0,0,0,
0,0,0,0,0,0,0,0,0,0,0,0,1,2,3,1,
0,0,0,0,0,0,0,0,0,0,0,0,9,10,11,9,
0,0,0,0,0,0,0,0,0,0,0,0,17,18,19,17,
0,0,0,0,0,0,0,0,0,0,0,0,25,26,27,25
</chunk>
   <chunk x="16" y="-16" width="16" height="16">
0,0,0,0,0,0,0,0,0,0,0,0,0,0,0,0,
2,3,0,0,0,0,0,0,0,0,0,0,0,0,0,0,
10,11,0,0,0,0,0,0,0,0,0,0,0,0,0,0,
18,19,0,0,0,0,0,0,0,0,0,0,0,0,0,0,
26,27,0,0,0,0,0,0,0,0,0,0,0,0,0,0,
2,3,0,0,0,0,0,0,0,0,0,0,0,0,0,0,
10,11,0,0,0,0,0,0,0,0,0,0,0,0,0,0,
18,19,0,0,0,0,0,0,0,0,0,0,0,0,0,0,
26,27,0,0,0,0,0,0,0,0,0,0,0,0,0,0,
0,0,0,0,0,0,0,0,0,0,0,0,0,0,0,0,
0,0,0,0,0,0,0,0,0,0,0,1,2,3,0,0,
0,0,0,0,0,1,2,3,1,2,3,9,10,11,0,0,
2,3,1,2,3,9,10,11,9,10,11,17,18,19,0,0,
10,11,9,10,11,17,18,19,17,18,19,25,26,1,2,3,
18,19,17,18,19,25,26,27,25,26,27,0,0,9,10,11,
26,27,25,26,27,0,0,0,0,0,0,0,0,17,18,19
</chunk>
   <chunk x="32" y="-16" width="16" height="16">
0,0,0,0,0,0,0,0,0,0,17,18,19,0,0,0,
1,2,3,0,0,1,2,3,0,0,25,26,27,0,0,0,
9,10,11,0,0,9,10,11,0,0,0,0,0,0,0,0,
17,18,19,0,0,17,18,19,0,0,0,0,0,0,0,0,
25,26,27,0,0,25,26,27,0,0,0,0,0,0,0,0,
0,0,0,0,0,0,0,0,0,0,0,0,0,0,0,0,
0,0,0,0,0,0,0,0,0,0,0,0,0,0,0,0,
0,0,0,0,0,0,0,0,0,0,0,0,0,0,0,0,
0,0,0,0,0,0,0,0,0,0,0,0,0,0,0,0,
0,0,0,0,0,0,0,0,0,0,0,0,0,0,0,0,
0,0,0,0,0,0,0,0,0,0,0,0,0,0,0,0,
0,0,0,0,0,0,0,0,0,0,0,0,0,0,0,0,
0,0,0,0,0,0,0,0,0,0,0,0,0,0,0,0,
0,0,0,0,0,0,0,0,0,0,0,0,0,0,0,0,
0,0,0,0,0,0,0,0,0,0,0,0,0,0,0,0,
0,1,2,3,0,1,2,3,0,0,1,2,3,0,0,0
</chunk>
   <chunk x="64" y="-16" width="16" height="16">
0,0,0,0,25,26,27,0,9,10,11,0,0,1,2,3,
0,0,0,0,0,0,0,0,17,18,19,0,0,9,10,11,
0,0,0,0,0,0,0,0,25,26,27,0,0,17,18,19,
0,0,0,0,0,0,0,0,0,0,0,0,0,25,26,27,
0,0,0,0,0,0,0,0,0,0,1,2,3,0,0,0,
0,0,0,0,0,0,0,0,0,0,9,10,11,0,0,0,
0,0,0,0,0,0,0,0,0,0,17,18,19,0,0,0,
0,0,0,0,0,0,0,0,0,0,25,26,27,1,2,3,
0,0,0,0,0,0,0,0,0,0,0,0,0,9,10,11,
0,0,0,0,0,0,0,0,0,0,0,0,0,17,18,19,
0,0,0,0,0,0,0,0,0,0,0,0,0,25,26,27,
0,0,0,0,0,0,0,0,0,1,2,3,0,0,0,0,
0,0,0,0,0,0,0,0,0,9,10,11,0,1,2,3,
0,0,0,0,0,0,0,0,0,17,18,19,0,9,10,11,
0,0,0,0,0,0,0,0,0,25,26,27,0,17,18,19,
0,0,0,0,0,0,0,0,0,0,0,0,0,25,26,27
</chunk>
   <chunk x="-16" y="0" width="16" height="16">
1,2,3,0,1,2,3,0,1,2,3,0,0,0,0,0,
9,10,11,0,9,10,11,0,9,10,11,0,0,0,0,0,
17,18,19,0,17,18,19,0,17,18,19,0,0,0,0,0,
25,26,27,0,25,26,27,0,25,26,27,0,0,0,0,0,
0,0,1,2,3,0,1,2,3,0,1,2,3,0,0,0,
0,0,9,10,11,0,9,10,11,0,9,10,11,0,42,42,
0,0,17,18,19,0,17,18,19,0,17,18,19,0,42,42,
0,0,25,26,27,0,25,26,27,0,25,26,27,0,0,0,
1,2,3,0,1,2,3,0,1,2,3,0,1,2,3,0,
9,10,11,0,9,10,11,0,9,10,11,0,9,10,11,0,
17,18,19,0,17,18,19,0,17,18,19,0,17,18,19,0,
25,26,27,0,25,26,27,0,25,26,27,0,25,26,27,0,
1,2,3,0,1,2,3,0,0,1,2,3,0,1,2,3,
9,10,11,0,9,10,11,0,0,9,10,11,0,9,10,11,
17,18,19,0,17,18,19,0,0,17,18,19,0,17,18,19,
25,26,27,0,25,26,27,0,0,25,26,27,0,25,26,27
</chunk>
   <chunk x="0" y="0" width="16" height="16">
0,0,0,0,0,0,0,0,0,0,0,0,0,0,0,0,
0,0,0,0,0,0,0,0,0,0,0,0,0,0,0,0,
1,2,3,0,0,0,0,0,0,0,0,0,0,1,2,3,
9,10,11,0,0,0,0,0,0,0,0,0,0,9,10,11,
17,18,19,0,0,0,0,0,0,0,0,0,0,17,18,19,
25,26,27,0,0,0,0,0,0,0,0,0,0,25,26,27,
1,2,3,0,0,0,0,0,0,0,0,0,0,1,2,3,
9,10,11,0,0,0,0,0,0,0,0,0,0,9,10,11,
17,18,19,0,0,0,0,0,0,0,0,0,0,17,18,19,
25,26,27,0,0,0,0,0,0,0,0,0,0,25,26,27,
0,0,0,0,0,0,0,0,0,0,0,0,0,0,0,0,
0,0,0,0,0,0,0,0,0,0,0,0,0,0,0,0,
0,0,0,0,0,0,0,0,0,0,0,0,0,0,0,0,
0,0,0,0,0,0,0,0,0,0,0,0,0,0,0,0,
0,0,0,0,0,0,0,0,0,0,0,0,0,0,0,0,
0,0,0,0,0,0,0,0,0,0,0,0,0,0,0,0
</chunk>
   <chunk x="16" y="0" width="16" height="16">
1,2,3,0,0,0,1,2,3,0,1,2,3,25,26,27,
9,10,11,0,0,0,9,10,11,0,9,10,11,0,0,0,
17,18,19,0,0,0,17,18,19,0,17,18,19,0,0,0,
25,26,27,0,0,0,25,26,27,0,25,26,27,0,0,0,
1,2,3,0,1,2,3,0,1,2,3,0,1,2,3,0,
9,10,11,0,9,10,11,0,9,10,11,0,9,10,11,0,
17,18,19,0,17,18,19,0,17,18,19,0,17,18,19,0,
25,26,27,0,25,26,27,0,25,26,27,0,25,26,27,0,
1,2,3,0,1,2,3,0,1,2,3,0,1,2,3,0,
9,10,11,0,9,10,11,0,9,10,11,0,9,10,11,0,
17,18,19,0,17,18,19,0,17,18,19,0,17,18,19,0,
25,26,27,0,25,26,27,0,25,26,27,0,25,26,27,0,
1,2,3,0,1,2,3,0,1,2,3,0,1,2,3,0,
9,10,11,0,9,10,11,0,9,10,11,0,9,10,11,0,
17,18,19,0,17,18,19,0,17,18,19,0,17,18,19,0,
25,26,27,0,25,26,27,0,25,26,27,0,25,26,27,0
</chunk>
   <chunk x="32" y="0" width="16" height="16">
0,9,10,11,0,9,10,11,0,0,9,10,11,0,0,0,
0,17,18,19,0,17,18,19,0,0,17,18,19,0,0,0,
0,25,26,27,0,25,26,27,0,0,25,26,27,0,0,0,
0,0,0,0,0,0,0,0,0,0,0,0,0,0,0,0,
0,1,2,3,0,1,2,3,0,1,2,3,0,1,2,3,
0,9,10,11,0,9,10,11,0,9,10,11,0,9,10,11,
0,17,18,19,0,17,18,19,0,17,18,19,0,17,18,19,
0,25,26,27,0,25,26,27,0,25,26,27,0,25,26,27,
0,0,0,0,1,2,3,0,0,0,0,0,0,0,0,0,
1,2,3,0,9,10,11,0,0,0,0,0,0,0,0,0,
9,10,11,0,17,18,19,0,0,0,0,0,0,0,0,0,
17,18,19,0,25,26,27,0,1,2,3,0,0,1,2,3,
25,26,27,1,2,3,0,0,9,10,11,0,0,9,10,11,
0,0,0,9,10,11,0,0,17,18,19,0,0,17,18,19,
0,0,0,17,18,19,0,0,25,26,27,0,0,25,26,27,
0,0,0,25,26,27,0,0,0,0,0,0,0,0,0,0
</chunk>
   <chunk x="48" y="0" width="16" height="16">
0,0,0,0,0,0,0,0,0,0,0,0,0,0,0,0,
0,0,0,0,0,0,0,0,0,0,0,0,0,0,0,0,
0,0,0,0,0,0,0,0,0,0,0,0,0,0,0,0,
0,0,0,0,0,0,0,0,0,0,0,0,0,0,0,0,
0,1,2,3,0,0,1,2,3,0,0,0,0,0,0,0,
0,9,10,11,0,0,9,10,11,0,0,1,2,3,0,0,
0,17,18,19,0,0,17,18,19,0,0,9,10,11,0,1,
0,25,26,27,0,0,25,26,27,0,0,17,18,19,0,9,
1,2,3,0,0,0,0,0,0,0,0,25,26,27,0,17,
9,10,11,0,0,0,0,0,1,2,3,0,0,0,0,25,
17,18,19,0,0,0,0,0,9,10,11,0,0,0,0,0,
25,26,27,0,1,2,3,0,17,18,19,0,0,1,2,3,
0,0,0,0,9,10,11,0,25,26,27,0,0,9,10,11,
0,0,0,0,17,18,19,0,0,0,0,0,0,17,18,19,
0,0,0,0,25,26,27,0,0,0,0,0,0,25,26,27,
0,0,0,0,0,0,0,0,0,0,0,0,0,0,0,0
</chunk>
   <chunk x="64" y="0" width="16" height="16">
0,0,0,0,0,0,0,1,2,3,4,0,0,0,0,0,
0,0,0,0,0,0,0,9,10,11,4,0,0,0,0,0,
0,0,0,0,0,0,0,17,18,19,4,0,1,2,3,0,
0,0,0,1,2,3,0,25,26,27,4,0,9,10,11,0,
0,0,0,9,10,11,0,0,0,0,0,0,17,18,19,0,
0,0,0,17,18,19,0,0,0,0,0,0,25,26,27,0,
2,3,0,25,26,27,0,0,0,1,2,3,0,0,0,0,
10,11,0,0,0,0,0,0,0,9,10,11,0,0,0,0,
18,19,0,0,1,2,3,0,0,17,18,19,0,0,0,0,
26,27,0,0,9,10,11,0,0,25,26,27,0,0,0,0,
0,0,0,0,17,18,19,0,0,0,0,0,0,0,0,0,
0,1,2,3,25,26,27,0,1,2,3,0,0,1,2,3,
0,9,10,11,0,0,0,0,9,10,11,0,0,9,10,11,
0,17,18,19,0,0,0,0,17,18,19,0,0,17,18,19,
0,25,26,27,0,0,0,0,25,26,27,0,0,25,26,27,
0,0,0,0,0,0,0,0,0,0,0,0,0,0,0,0
</chunk>
  </data>
 </layer>
</map>
