<?xml version="1.0" encoding="UTF-8"?>
<map version="1.10" tiledversion="1.12.1" orientation="orthogonal" renderorder="right-down" width="100" height="75" tilewidth="16" tileheight="16" infinite="0" nextlayerid="8" nextobjectid="2942">
 <tileset firstgid="1" name="zeo254-completed-commission" tilewidth="16" tileheight="16" tilecount="64" columns="8">
  <image source="../tile_sets/zeo254-completed-commission.png" trans="ff00ff" width="128" height="128"/>
 </tileset>
 <tileset firstgid="65" name="tree" tilewidth="16" tileheight="16" tilecount="12" columns="3">
  <image source="../tile_sets/tree.png" trans="ff00ff" width="48" height="64"/>
 </tileset>
 <tileset firstgid="77" name="tree" tilewidth="48" tileheight="64" tilecount="1" columns="1">
  <image source="../tile_sets/tree.png" trans="ff00ff" width="48" height="64"/>
 </tileset>
 <tileset firstgid="78" name="tree-removebg" tilewidth="48" tileheight="64" tilecount="1" columns="1">
  <image source="../../../../../../Downloads/tree-removebg.png" trans="ff00ff" width="48" height="64"/>
 </tileset>
 <layer id="1" name="Tile Layer 1" width="100" height="75">
  <data encoding="csv">
0,0,0,0,0,0,0,0,0,0,0,0,0,0,0,0,0,0,0,0,0,0,0,0,0,0,0,0,0,0,0,0,0,0,0,0,0,0,0,0,0,0,0,0,0,0,0,0,0,0,0,0,0,0,0,0,0,0,0,0,0,0,0,0,0,0,0,0,0,0,0,0,0,0,0,0,0,0,0,0,0,0,0,0,0,0,0,0,0,0,0,0,0,0,0,0,0,0,0,0,
0,4,4,4,4,4,4,4,4,4,4,4,4,4,4,4,4,4,4,4,4,4,4,4,4,4,4,4,4,4,4,4,4,4,4,4,4,4,4,4,4,4,4,4,4,4,4,4,4,4,4,4,4,4,4,4,4,4,4,4,4,4,4,4,4,4,4,4,4,4,4,4,4,4,4,4,4,4,4,4,4,4,4,4,4,4,4,4,4,4,4,4,4,4,4,4,4,0,0,0,
0,4,4,4,4,4,4,4,4,4,4,4,4,4,4,4,4,4,4,4,4,4,4,4,4,4,4,4,4,4,4,4,4,4,4,4,4,4,4,4,4,4,4,4,4,4,4,4,4,4,4,4,4,4,4,4,4,4,4,4,4,4,4,4,4,4,4,4,4,4,4,4,4,4,4,4,4,4,4,4,4,4,4,4,4,4,4,4,4,4,4,4,4,4,4,4,4,0,0,0,
0,4,4,4,4,4,4,4,4,4,4,4,4,4,4,4,4,4,4,4,4,4,4,4,4,4,4,4,4,4,4,4,4,4,4,4,4,4,4,4,4,4,4,4,4,4,4,4,4,4,4,4,4,4,4,4,4,4,4,4,4,4,4,4,4,4,4,4,4,4,4,4,4,4,4,4,4,4,4,4,4,4,4,4,4,4,4,4,4,4,4,4,4,4,4,4,4,0,0,0,
0,4,4,4,4,4,4,4,4,4,4,4,4,4,4,4,4,4,4,4,4,4,4,4,4,4,4,4,4,4,4,4,4,4,4,4,4,4,4,4,4,4,4,4,4,4,4,4,4,4,4,4,4,4,4,4,4,4,4,4,4,4,4,4,4,4,4,4,4,4,4,4,4,4,4,4,4,4,4,4,4,4,4,4,4,4,4,4,4,4,4,4,4,4,4,4,4,0,0,0,
0,4,4,4,4,4,4,4,4,4,4,4,4,4,4,4,4,4,4,4,4,4,4,4,4,4,4,4,4,4,4,4,4,4,4,4,4,4,4,4,4,4,4,4,4,4,4,4,4,4,4,4,4,4,4,4,4,4,4,4,4,4,4,4,4,4,4,4,4,4,4,4,4,4,4,4,4,4,4,4,4,4,4,4,4,4,4,4,4,4,4,4,4,4,4,4,4,0,0,0,
0,4,4,4,4,4,4,4,4,4,4,4,4,4,4,4,4,4,4,4,4,4,4,4,4,4,4,4,4,4,4,4,4,4,4,4,4,4,4,4,4,4,4,4,4,4,4,4,4,4,4,4,4,4,4,4,4,4,4,4,4,4,4,4,4,4,4,4,4,4,4,4,4,4,4,4,4,4,4,4,4,4,4,4,4,4,4,4,4,4,4,4,4,4,4,4,4,0,0,0,
0,4,4,4,4,4,4,4,4,4,4,4,4,4,4,4,4,4,4,4,4,4,4,4,4,4,4,4,4,4,4,4,4,4,4,4,4,4,4,4,4,4,4,4,4,4,4,4,4,4,4,4,4,4,4,4,4,4,4,4,4,4,4,4,4,4,4,4,4,4,4,4,4,4,4,4,4,4,4,4,4,4,4,4,4,4,4,4,4,4,4,4,4,4,4,4,4,0,0,0,
0,4,4,4,4,4,4,4,4,4,4,4,4,4,4,4,4,4,4,4,4,4,4,4,4,4,4,4,4,4,4,4,4,4,4,4,4,4,4,4,4,4,4,4,4,4,4,4,4,4,4,4,4,4,4,4,4,4,4,4,4,4,4,4,4,4,4,4,4,4,4,4,4,4,4,4,4,4,4,4,4,4,4,4,4,4,4,4,4,4,4,4,4,4,4,4,4,0,0,0,
0,4,4,4,4,4,4,4,4,4,4,4,4,4,4,4,4,4,4,4,4,4,4,4,4,4,4,4,4,4,4,4,4,4,4,4,4,4,4,4,4,4,4,4,4,4,4,4,4,4,4,4,4,4,4,4,4,4,4,4,4,4,4,4,4,4,4,4,4,4,4,4,4,4,4,4,4,4,4,4,4,4,4,4,4,4,4,4,4,4,4,4,4,4,4,4,4,0,0,0,
0,4,4,4,4,4,4,4,4,4,4,4,4,4,4,4,4,4,4,4,4,4,4,4,4,4,4,4,4,4,4,4,4,4,4,4,4,4,4,4,4,4,4,4,4,4,4,4,4,4,4,4,4,4,4,4,4,4,4,4,4,4,4,4,4,4,4,4,4,4,4,4,4,4,4,4,4,4,4,4,4,4,4,4,4,4,4,4,4,4,4,4,4,4,4,4,4,0,0,0,
0,4,4,4,4,4,4,4,4,4,4,4,4,4,4,4,4,4,4,4,4,4,4,4,4,4,4,4,4,4,4,4,4,4,4,4,4,4,4,4,4,4,4,4,4,4,4,4,4,4,4,4,4,4,4,4,4,4,4,4,4,4,4,4,4,4,4,4,4,4,4,4,4,4,4,4,4,4,4,4,4,4,4,4,4,4,4,4,4,4,4,4,4,4,4,4,4,0,0,0,
0,4,4,4,4,4,4,4,4,4,4,4,4,4,4,4,4,4,4,4,4,4,4,4,4,4,4,4,4,4,4,4,4,4,4,4,4,4,4,4,4,4,4,4,4,4,4,4,4,4,4,4,4,4,4,4,4,4,4,4,4,4,4,4,4,4,4,4,4,4,4,4,4,4,4,4,4,4,4,4,4,4,4,4,4,4,4,4,4,4,4,4,4,4,4,4,4,0,0,0,
0,4,4,4,4,4,4,4,4,4,4,4,4,4,4,4,4,4,4,4,4,4,4,4,4,4,4,4,4,4,4,4,4,4,4,4,4,4,4,4,4,4,4,4,4,4,4,4,4,4,4,4,4,4,4,4,4,4,4,4,4,4,4,4,4,4,4,4,4,4,4,4,4,4,4,4,4,4,4,4,4,4,4,4,4,4,4,4,4,4,4,4,4,4,4,4,4,0,0,0,
0,4,4,4,4,4,4,4,4,4,4,4,4,4,4,4,4,4,4,4,4,4,4,4,4,4,4,4,4,4,4,4,4,4,4,4,4,4,4,4,4,4,4,4,4,4,4,4,4,4,4,4,4,4,4,4,4,4,4,4,4,4,4,4,4,4,4,4,4,4,4,4,4,4,4,4,4,4,4,4,4,4,4,4,4,4,4,4,4,4,4,4,4,4,4,4,4,0,0,0,
0,4,4,4,4,4,4,4,4,4,4,4,4,4,4,4,4,4,4,4,4,4,4,4,4,4,4,4,4,4,4,4,4,4,4,4,4,4,4,4,4,4,4,4,4,4,4,4,4,4,4,4,4,4,4,4,4,4,4,4,4,4,4,4,4,4,4,4,4,4,4,4,4,4,4,4,4,4,4,4,4,4,4,4,4,4,4,4,4,4,4,4,4,4,4,4,4,0,0,0,
0,4,4,4,4,4,4,4,4,4,4,4,4,4,4,4,4,4,4,4,4,4,4,4,4,4,4,4,4,4,4,4,4,4,4,4,4,4,4,4,4,4,4,4,4,4,4,4,4,4,4,4,4,4,4,4,4,4,4,4,4,4,4,4,4,4,4,4,4,4,4,4,4,4,4,4,4,4,4,4,4,4,4,4,4,4,4,4,4,4,4,4,4,4,4,4,4,0,0,0,
0,4,4,4,4,4,4,4,4,4,4,4,4,4,4,4,4,4,4,4,4,4,4,4,4,4,4,4,4,4,4,4,4,4,4,4,4,4,4,4,4,4,4,4,4,4,4,4,4,4,4,4,4,4,4,4,4,4,4,4,4,4,4,4,4,4,4,4,4,4,4,4,4,4,4,4,4,4,4,4,4,4,4,4,4,4,4,4,4,4,4,4,4,4,4,4,4,0,0,0,
0,4,4,4,4,4,4,4,4,4,4,4,4,4,4,4,4,4,4,4,4,4,4,4,4,4,4,4,4,4,4,4,4,4,4,4,4,4,4,4,4,4,4,4,4,4,4,4,4,4,4,4,4,4,4,4,4,4,4,4,4,4,4,4,4,4,4,4,4,4,4,4,4,4,4,4,4,4,4,4,4,4,4,4,4,4,4,4,4,4,4,4,4,4,4,4,4,0,0,0,
0,4,4,4,4,4,4,4,4,4,4,4,4,4,4,4,4,4,4,4,4,4,4,4,4,4,4,4,4,4,4,4,4,4,4,4,4,4,4,4,4,4,4,4,4,4,4,4,4,4,4,4,4,4,4,4,4,4,4,4,4,4,4,4,4,4,4,4,4,4,4,4,4,4,4,4,4,4,4,4,4,4,4,4,4,4,4,4,4,4,4,4,4,4,4,4,4,0,0,0,
0,4,4,4,4,4,4,4,4,4,4,4,4,4,4,4,4,4,4,4,4,4,4,4,4,4,4,4,4,4,4,4,4,4,4,4,4,4,4,4,4,4,4,4,4,4,4,4,4,4,4,4,4,4,4,4,4,4,4,4,4,4,4,4,4,4,4,4,4,4,4,4,4,4,4,4,4,4,4,4,4,4,4,4,4,4,4,4,4,4,4,4,4,4,4,4,4,0,0,0,
0,4,4,4,4,4,4,4,4,4,4,4,4,4,4,4,4,4,4,4,4,4,4,4,4,4,4,4,4,4,4,4,4,4,4,4,4,4,4,4,4,4,4,4,4,4,4,4,4,4,4,4,4,4,4,4,4,4,4,4,4,4,4,4,4,4,4,4,4,4,4,4,4,4,4,4,4,4,4,4,4,4,4,4,4,4,4,4,4,4,4,4,4,4,4,4,4,0,0,0,
0,4,4,4,4,4,4,4,4,4,4,4,4,4,4,4,4,4,4,4,4,4,4,4,4,4,4,4,4,4,4,4,4,4,4,4,4,4,4,4,4,4,4,4,4,4,4,4,4,4,4,4,4,4,4,4,4,4,4,4,4,4,4,4,4,4,4,4,4,4,4,4,4,4,4,4,4,4,4,4,4,4,4,4,4,4,4,4,4,4,4,4,4,4,4,4,4,0,0,0,
0,4,4,4,4,4,4,4,4,4,4,4,4,4,4,4,4,4,4,4,4,4,4,4,4,4,4,4,4,4,4,4,4,4,4,4,4,4,4,4,4,4,4,4,4,4,4,4,4,4,4,4,4,4,4,4,4,4,4,4,4,4,4,4,4,4,4,4,4,4,4,4,4,4,4,4,4,4,4,4,4,4,4,4,4,4,4,4,4,4,4,4,4,4,4,4,4,0,0,0,
0,4,4,4,4,4,4,4,4,4,4,4,4,4,4,4,4,4,4,4,4,4,4,4,4,4,4,4,4,4,4,4,4,4,4,4,4,4,4,4,4,4,4,4,4,4,4,4,4,4,4,4,4,4,4,4,4,4,4,4,4,4,4,4,4,4,4,4,4,4,4,4,4,4,4,4,4,4,4,4,4,4,4,4,4,4,4,4,4,4,4,4,4,4,4,4,4,0,0,0,
0,4,4,4,4,4,4,4,4,4,4,4,4,4,4,4,4,4,4,4,4,4,4,4,4,4,4,4,4,4,4,4,4,4,4,4,4,4,4,4,4,4,4,4,4,4,4,4,4,4,4,4,4,4,4,4,4,4,4,4,4,4,4,4,4,4,4,4,4,4,4,4,4,4,4,4,4,4,4,4,4,4,4,4,4,4,4,4,4,4,4,4,4,4,4,4,4,0,0,0,
0,4,4,4,4,4,4,4,4,4,4,4,4,4,4,4,4,4,4,4,4,4,4,4,4,4,4,4,4,4,4,4,4,4,4,4,4,4,4,4,4,4,4,4,4,4,4,4,4,4,4,4,4,4,4,4,4,4,4,4,4,4,4,4,4,4,4,4,4,4,4,4,4,4,4,4,4,4,4,4,4,4,4,4,4,4,4,4,4,4,4,4,4,4,4,4,4,0,0,0,
0,4,4,4,4,4,4,4,4,4,4,4,4,4,4,4,4,4,4,4,4,4,4,4,4,4,4,4,4,4,4,4,4,4,4,4,4,4,4,4,4,4,4,4,4,4,4,4,4,4,4,4,4,4,4,4,4,4,4,4,4,4,4,4,4,4,4,4,4,4,4,4,4,4,4,4,4,4,4,4,4,4,4,4,4,4,4,4,4,4,4,4,4,4,4,4,4,0,0,0,
0,4,4,4,4,4,4,4,4,4,4,4,4,4,4,4,4,4,4,4,4,4,4,4,4,4,4,4,4,4,4,4,4,4,4,4,4,4,4,4,4,4,4,4,4,4,4,4,4,4,4,4,4,4,4,4,4,4,4,4,4,4,4,4,4,4,4,4,4,4,4,4,4,4,4,4,4,4,4,4,4,4,4,4,4,4,4,4,4,4,4,4,4,4,4,4,4,0,0,0,
0,4,4,4,4,4,4,4,4,4,4,4,4,4,4,4,4,4,4,4,4,4,4,4,4,4,4,4,4,4,4,4,4,4,4,4,4,4,4,4,4,4,4,4,4,4,4,4,4,4,4,4,4,4,4,4,4,4,4,4,4,4,4,4,4,4,4,4,4,4,4,4,4,4,4,4,4,4,4,4,4,4,4,4,4,4,4,4,4,4,4,4,4,4,4,4,4,0,0,0,
0,4,4,4,4,4,4,4,4,4,4,4,4,4,4,4,4,4,4,4,4,4,4,4,4,4,4,4,4,4,4,4,4,4,4,4,4,4,4,4,4,4,4,4,4,4,4,4,4,4,4,4,4,4,4,4,4,4,4,4,4,4,4,4,4,4,4,4,4,4,4,4,4,4,4,4,4,4,4,4,4,4,4,4,4,4,4,4,4,4,4,4,4,4,4,4,4,0,0,0,
0,4,4,4,4,4,4,4,4,4,4,4,4,4,4,4,4,4,4,4,4,4,4,4,4,4,4,4,4,4,4,4,4,4,4,4,4,4,4,4,4,4,4,4,4,4,4,4,4,4,4,4,4,4,4,4,4,4,4,4,4,4,4,4,4,4,4,4,4,4,4,4,4,4,4,4,4,4,4,4,4,4,4,4,4,4,4,4,4,4,4,4,4,4,4,4,4,0,0,0,
0,4,4,4,4,4,4,4,4,4,4,4,4,4,4,4,4,4,4,4,4,4,4,4,4,4,4,4,4,4,4,4,4,4,4,4,4,4,4,4,4,4,4,4,4,4,4,4,4,4,4,4,4,4,4,4,4,4,4,4,4,4,4,4,4,4,4,4,4,4,4,4,4,4,4,4,4,4,4,4,4,4,4,4,4,4,4,4,4,4,4,4,4,4,4,4,4,0,0,0,
0,4,4,4,4,4,4,4,4,4,4,4,4,4,4,4,4,4,4,4,4,4,4,4,4,4,4,4,4,4,4,4,4,4,4,4,4,4,4,4,4,4,4,4,4,4,4,4,4,4,4,4,4,4,4,4,4,4,4,4,4,4,4,4,4,4,4,4,13,14,14,14,14,14,14,14,14,15,15,16,4,4,4,4,4,4,4,4,4,4,4,4,4,4,4,4,4,0,0,0,
0,4,4,4,4,4,4,4,4,4,4,4,4,4,4,4,4,4,4,4,4,4,4,4,4,4,4,4,4,4,4,4,4,4,4,4,4,4,4,4,4,4,4,4,4,4,4,4,4,4,4,4,4,4,4,4,4,4,4,4,4,4,4,4,4,4,4,13,22,22,22,22,22,22,22,22,22,48,48,48,16,4,4,4,4,4,4,4,4,4,4,4,4,4,4,4,4,0,0,0,
0,4,4,4,4,4,4,4,4,4,4,4,4,4,4,4,4,4,4,4,4,4,4,4,4,22,22,22,22,4,4,4,4,4,4,4,4,4,4,4,4,4,4,4,4,4,4,4,4,4,4,4,4,4,4,4,4,4,4,4,4,4,4,4,4,4,13,22,22,22,22,22,22,22,22,22,22,22,22,48,48,16,4,4,4,4,4,4,4,4,4,4,4,4,4,4,4,0,0,0,
0,4,4,4,4,4,4,4,4,4,4,4,4,4,4,4,4,4,4,4,4,4,4,4,22,22,22,22,22,22,4,4,4,4,4,4,4,4,4,4,4,4,4,4,4,4,4,4,4,4,4,4,4,4,4,4,4,4,4,4,4,4,4,4,4,4,21,22,22,22,22,22,22,22,22,22,22,22,22,22,22,48,16,4,4,4,4,4,4,4,4,4,4,4,4,4,4,0,0,0,
0,4,4,4,4,4,4,4,4,4,4,4,4,4,4,4,4,4,4,4,4,4,4,22,22,46,22,22,46,22,22,4,4,4,4,4,4,4,4,4,4,4,4,4,4,4,4,4,4,4,4,4,4,4,4,4,4,4,4,4,4,4,4,4,4,4,21,22,22,22,22,22,22,22,22,22,22,22,22,22,22,22,22,16,4,4,4,4,4,4,4,4,4,4,4,4,4,0,0,0,
0,4,4,4,4,4,4,4,4,4,4,4,4,4,4,4,4,4,4,4,4,4,22,22,22,22,22,46,22,22,22,22,4,4,4,4,4,4,4,4,4,4,4,4,4,4,4,4,4,4,4,4,4,4,4,4,4,4,4,4,4,4,4,4,4,4,21,22,22,22,22,22,22,22,22,22,22,22,22,22,22,22,22,22,15,16,4,4,4,4,4,4,4,4,4,4,4,0,0,0,
0,4,4,4,4,4,4,4,4,4,4,4,4,4,4,4,4,4,4,4,4,4,22,22,46,22,22,22,22,22,46,22,4,4,4,4,4,4,4,4,4,4,4,4,4,4,4,4,4,4,4,4,4,4,4,4,4,4,4,4,4,4,4,4,4,13,22,22,22,22,22,22,22,22,22,22,22,22,22,22,22,22,22,22,22,22,16,4,4,4,4,4,4,4,4,4,4,0,0,0,
0,4,4,4,4,4,4,4,4,4,4,4,4,4,4,4,4,4,4,4,4,4,22,22,22,22,46,22,22,22,22,22,4,4,4,4,4,4,4,4,4,4,4,4,4,4,4,4,4,4,4,4,4,4,4,4,4,4,4,4,4,4,4,4,13,22,22,22,22,22,22,22,22,22,22,22,22,22,22,22,22,22,22,22,22,48,22,16,4,4,4,4,4,4,4,4,4,0,0,0,
0,4,4,4,14,14,14,14,14,14,14,14,14,14,14,14,14,14,14,14,14,14,22,22,22,22,22,22,22,22,22,22,4,4,4,4,13,14,14,14,14,14,14,14,14,14,14,14,14,14,14,14,14,14,14,14,14,14,14,14,14,14,14,14,22,22,22,22,22,22,22,22,22,22,22,22,22,22,22,22,22,22,22,22,22,48,48,24,4,4,4,4,4,4,4,4,4,0,0,0,
0,4,4,22,22,22,22,22,22,22,22,22,22,22,22,22,22,22,22,22,22,22,22,22,22,22,22,22,22,22,22,22,22,22,22,22,22,22,22,22,22,22,22,22,22,22,22,22,22,22,22,22,22,22,22,22,22,22,22,22,22,22,22,22,22,22,22,22,22,22,22,22,22,22,22,22,22,22,22,22,22,22,22,48,48,48,48,24,4,4,4,4,4,4,4,4,4,0,0,0,
0,4,4,22,22,22,22,22,22,22,22,22,22,22,22,22,22,22,22,22,22,22,22,22,22,22,22,22,22,22,22,22,22,22,22,22,22,22,22,22,22,22,22,22,22,22,22,22,22,22,22,22,22,22,22,22,22,22,22,22,22,22,22,22,22,22,22,22,22,22,22,22,22,22,22,22,22,22,22,22,22,22,48,48,22,22,48,32,4,4,4,4,4,4,4,4,4,0,0,0,
0,4,4,22,22,22,22,22,22,22,22,22,22,22,22,22,22,22,22,22,22,22,22,22,22,22,22,22,22,22,22,22,22,22,22,22,22,22,22,22,22,22,22,22,22,22,22,22,22,22,22,22,22,22,22,22,22,22,22,22,22,22,22,22,22,22,22,22,22,22,22,22,22,22,22,22,22,22,22,22,22,22,22,22,22,22,32,4,4,4,4,4,4,4,4,4,4,0,0,0,
0,4,4,22,22,22,22,22,22,22,22,22,22,22,22,22,22,22,22,22,22,22,22,22,22,22,22,22,22,22,22,22,22,22,22,22,31,31,31,31,31,31,31,31,4,4,4,4,4,29,30,30,30,30,30,30,30,30,30,30,30,30,30,30,22,22,22,22,22,22,22,22,22,22,22,22,22,22,22,22,22,22,22,22,22,32,4,4,4,4,4,4,4,4,4,4,4,0,0,0,
0,4,4,30,30,30,30,30,31,31,31,31,31,31,31,31,31,31,31,31,31,21,22,22,22,22,22,22,22,30,30,30,30,30,30,32,4,4,4,4,4,4,4,4,4,4,4,4,4,4,4,4,4,4,4,4,4,4,4,4,4,4,4,4,29,22,22,22,22,22,22,22,22,22,22,22,22,22,22,22,22,22,22,22,32,4,4,4,4,4,4,4,4,4,4,4,4,0,0,0,
0,4,4,4,4,4,4,4,4,4,4,4,4,4,4,4,4,4,4,4,4,21,22,22,22,22,22,22,24,4,4,4,4,4,4,4,4,4,4,4,4,4,4,4,4,4,4,4,4,4,4,4,4,4,4,4,4,4,4,4,4,4,4,4,4,29,22,22,22,22,22,22,22,22,22,22,22,22,22,22,22,22,22,32,4,4,4,4,4,4,4,4,4,4,4,4,4,0,0,0,
0,4,4,4,4,4,4,4,4,4,4,4,4,4,4,4,4,4,4,4,4,21,22,22,22,22,22,22,24,4,4,4,4,4,4,4,4,4,4,4,4,4,4,4,4,4,4,4,4,4,4,4,4,4,4,4,4,4,4,4,4,4,4,4,4,4,21,22,22,22,22,22,22,22,22,22,22,22,22,22,22,22,32,4,4,4,4,4,4,4,4,4,4,4,4,4,4,0,0,0,
0,4,4,4,4,4,4,4,4,4,4,4,4,4,4,4,4,4,4,4,4,21,22,22,22,22,22,22,24,4,4,4,4,4,4,4,4,4,4,4,4,4,4,4,4,4,4,4,4,4,4,4,4,4,4,4,4,4,4,4,4,4,4,4,4,4,29,22,22,22,22,22,22,22,22,22,22,22,22,22,22,24,4,4,4,4,4,4,4,4,4,4,4,4,4,4,4,0,0,0,
0,4,4,4,4,4,4,4,4,4,4,4,4,4,4,4,4,4,4,4,4,21,22,22,22,22,22,22,24,4,4,4,4,4,4,4,4,4,4,4,4,4,4,4,4,4,4,4,4,4,4,4,4,4,4,4,4,4,4,4,4,4,4,4,4,4,4,29,30,30,30,30,30,30,30,30,30,30,30,30,30,32,4,4,4,4,4,4,4,4,4,4,4,4,4,4,4,0,0,0,
0,4,4,4,4,4,4,4,4,4,4,4,4,4,4,4,4,4,8,4,4,21,22,22,22,22,22,22,24,4,4,8,4,4,4,4,4,4,4,4,4,4,4,4,4,4,4,4,4,4,4,4,4,4,4,4,4,4,4,4,4,4,4,4,4,4,4,4,4,4,4,4,4,4,4,4,4,4,4,4,4,4,4,4,4,4,4,4,4,4,4,4,4,4,4,4,4,0,0,0,
0,4,4,4,4,4,4,4,4,4,4,4,4,4,4,4,4,4,4,4,4,21,22,22,22,22,22,22,24,4,4,4,4,4,4,4,4,4,4,4,4,4,4,4,4,4,4,4,4,4,4,4,4,4,4,4,4,4,4,4,4,4,4,4,4,4,4,4,4,4,4,4,4,4,4,4,4,4,4,4,4,4,4,4,4,4,4,4,4,4,4,4,4,4,4,4,4,0,0,0,
0,4,4,4,4,4,4,4,4,4,4,4,4,4,4,4,4,4,4,8,4,21,22,22,22,22,22,22,24,4,8,8,6,4,4,4,4,4,4,4,4,4,4,4,4,4,4,4,4,4,4,4,4,4,4,4,4,4,4,4,4,4,4,4,4,4,4,4,4,4,4,4,4,4,4,4,4,4,4,4,4,4,4,4,4,4,4,4,4,4,4,4,4,4,4,4,4,0,0,0,
0,4,4,4,4,4,4,4,4,4,4,4,4,4,4,4,4,6,4,8,4,21,22,22,22,22,22,22,24,4,8,4,8,4,4,4,4,4,4,4,4,4,4,4,4,4,4,4,4,4,4,4,4,4,4,4,4,4,4,4,4,4,4,4,4,4,4,4,4,4,4,4,4,4,4,4,4,4,4,4,4,4,4,4,4,4,4,4,4,4,4,4,4,4,4,4,4,0,0,0,
0,4,4,4,4,4,4,4,4,4,4,4,4,4,4,4,4,4,4,4,6,21,22,22,22,22,22,22,24,6,4,4,4,4,4,4,4,4,4,4,4,4,4,4,4,4,4,4,4,4,4,4,4,4,4,4,4,4,4,4,4,4,4,4,4,4,4,4,4,4,4,4,4,4,4,4,4,4,4,4,4,4,4,4,4,4,4,4,4,4,4,4,4,4,4,4,4,0,0,0,
0,4,4,4,4,4,4,4,4,4,4,4,4,4,4,4,4,4,6,4,4,21,22,22,22,22,22,22,24,4,4,4,4,4,4,4,4,4,4,4,4,4,4,4,4,4,4,4,4,4,4,4,4,4,4,4,4,4,4,4,4,4,4,4,4,4,4,4,4,4,4,4,4,4,4,4,4,4,4,4,4,4,4,4,4,4,4,4,4,4,4,4,4,4,4,4,4,0,0,0,
0,4,4,4,4,4,4,4,4,4,4,4,4,4,4,4,4,6,6,6,4,21,22,22,22,22,22,22,24,4,4,8,4,4,4,4,4,4,4,4,4,4,4,4,4,4,4,4,4,4,4,4,4,4,4,4,4,4,4,4,4,4,4,4,4,4,4,4,4,4,4,4,4,4,4,4,4,4,4,4,4,4,4,4,4,4,4,4,4,4,4,4,4,4,4,4,4,0,0,0,
0,4,4,4,4,4,4,4,4,4,4,4,4,4,4,4,4,6,4,6,4,21,22,22,22,22,22,22,24,4,6,4,6,4,4,4,4,4,4,4,4,4,4,4,4,4,4,4,4,4,4,4,4,4,4,4,4,4,4,4,4,4,4,4,4,4,4,4,4,4,4,4,4,4,4,4,4,4,4,4,4,4,4,4,4,4,4,4,4,4,4,4,4,4,4,4,4,0,0,0,
0,4,4,4,4,4,4,4,4,4,4,4,4,4,4,4,4,6,6,6,13,22,22,22,22,22,22,22,22,16,6,6,4,4,4,4,4,4,4,4,4,4,4,4,4,4,4,4,4,4,4,4,4,4,4,4,4,4,4,4,4,4,4,4,4,4,4,4,4,4,4,4,4,4,4,4,4,4,4,4,4,4,4,4,4,4,4,4,4,4,4,4,4,4,4,4,4,0,0,0,
0,4,4,4,4,4,4,4,4,4,4,4,4,4,4,4,4,4,6,13,22,46,22,22,22,22,46,22,22,22,16,6,4,4,4,4,4,4,4,4,4,4,4,4,4,4,4,4,4,4,4,4,4,4,4,4,4,4,4,4,4,4,4,4,4,4,4,4,4,4,4,4,4,4,4,4,4,4,4,4,4,4,4,4,4,4,4,4,4,4,4,4,4,4,4,4,4,0,0,0,
0,4,4,4,4,4,4,4,4,4,4,4,4,4,4,4,4,4,13,22,22,22,22,22,22,22,22,22,22,48,22,16,4,4,4,4,4,4,4,4,4,4,4,4,4,4,4,4,4,4,4,4,4,4,4,4,4,4,4,4,4,4,4,4,4,4,4,4,4,4,4,4,4,4,4,4,4,4,4,4,4,4,4,4,4,4,4,4,4,4,4,4,4,4,4,4,4,0,0,0,
0,4,4,4,4,4,4,4,4,4,4,4,4,4,4,4,4,4,21,48,22,22,46,22,22,22,22,22,22,22,22,24,4,4,4,4,4,4,4,4,4,4,4,4,4,4,4,4,4,4,4,4,4,4,4,4,4,4,4,4,4,4,4,4,4,4,4,4,4,4,4,4,4,4,4,4,4,4,4,4,4,4,4,4,4,4,4,4,4,4,4,4,4,4,4,4,4,0,0,0,
0,4,4,4,4,4,4,4,4,4,4,4,4,4,4,4,4,4,21,48,22,22,22,46,46,46,46,22,22,22,48,24,4,4,4,4,4,4,4,4,4,4,4,4,4,4,4,4,4,4,4,4,4,4,4,4,4,4,4,4,4,4,4,4,4,4,4,4,4,4,4,4,4,4,4,4,4,4,4,4,4,4,4,4,4,4,4,4,4,4,4,4,4,4,4,4,4,0,0,0,
0,4,4,4,4,4,4,4,4,4,4,4,4,4,4,4,4,4,29,30,31,31,31,31,31,31,31,31,31,31,31,32,4,4,4,4,4,4,4,4,4,4,4,4,4,4,4,4,4,4,4,4,4,4,4,4,4,4,4,4,4,4,4,4,4,4,4,4,4,4,4,4,4,4,4,4,4,4,4,4,4,4,4,4,4,4,4,4,4,4,4,4,4,4,4,4,4,0,0,0,
0,0,0,0,0,0,0,0,0,0,0,0,0,0,0,0,0,0,0,0,0,0,0,0,0,0,0,0,0,0,0,0,0,0,0,0,0,0,0,0,0,0,0,0,0,0,0,0,0,0,0,0,0,0,0,0,0,0,0,0,0,0,0,0,0,0,0,0,0,0,0,0,0,0,0,0,0,0,0,0,0,0,0,0,0,0,0,0,0,0,0,0,0,0,0,0,0,0,0,0,
0,0,0,0,0,0,0,0,0,0,0,0,0,0,0,0,0,0,0,0,0,0,0,0,0,0,0,0,0,0,0,0,0,0,0,0,0,0,0,0,0,0,0,0,0,0,0,0,0,0,0,0,0,0,0,0,0,0,0,0,0,0,0,0,0,0,0,0,0,0,0,0,0,0,0,0,0,0,0,0,0,0,0,0,0,0,0,0,0,0,0,0,0,0,0,0,0,0,0,0,
0,0,0,0,0,0,0,0,0,0,0,0,0,0,0,0,0,0,0,0,0,0,0,0,0,0,0,0,0,0,0,0,0,0,0,0,0,0,0,0,0,0,0,0,0,0,0,0,0,0,0,0,0,0,0,0,0,0,0,0,0,0,0,0,0,0,0,0,0,0,0,0,0,0,0,0,0,0,0,0,0,0,0,0,0,0,0,0,0,0,0,0,0,0,0,0,0,0,0,0,
0,0,0,0,0,0,0,0,0,0,0,0,0,0,0,0,0,0,0,0,0,0,0,0,0,0,0,0,0,0,0,0,0,0,0,0,0,0,0,0,0,0,0,0,0,0,0,0,0,0,0,0,0,0,0,0,0,0,0,0,0,0,0,0,0,0,0,0,0,0,0,0,0,0,0,0,0,0,0,0,0,0,0,0,0,0,0,0,0,0,0,0,0,0,0,0,0,0,0,0,
0,0,0,0,0,0,0,0,0,0,0,0,0,0,0,0,0,0,0,0,0,0,0,0,0,0,0,0,0,0,0,0,0,0,0,0,0,0,0,0,0,0,0,0,0,0,0,0,0,0,0,0,0,0,0,0,0,0,0,0,0,0,0,0,0,0,0,0,0,0,0,0,0,0,0,0,0,0,0,0,0,0,0,0,0,0,0,0,0,0,0,0,0,0,0,0,0,0,0,0,
0,0,0,0,0,0,0,0,0,0,0,0,0,0,0,0,0,0,0,0,0,0,0,0,0,0,0,0,0,0,0,0,0,0,0,0,0,0,0,0,0,0,0,0,0,0,0,0,0,0,0,0,0,0,0,0,0,0,0,0,0,0,0,0,0,0,0,0,0,0,0,0,0,0,0,0,0,0,0,0,0,0,0,0,0,0,0,0,0,0,0,0,0,0,0,0,0,0,0,0,
0,0,0,0,0,0,0,0,0,0,0,0,0,0,0,0,0,0,0,0,0,0,0,0,0,0,0,0,0,0,0,0,0,0,0,0,0,0,0,0,0,0,0,0,0,0,0,0,0,0,0,0,0,0,0,0,0,0,0,0,0,0,0,0,0,0,0,0,0,0,0,0,0,0,0,0,0,0,0,0,0,0,0,0,0,0,0,0,0,0,0,0,0,0,0,0,0,0,0,0,
0,0,0,0,0,0,0,0,0,0,0,0,0,0,0,0,0,0,0,0,0,0,0,0,0,0,0,0,0,0,0,0,0,0,0,0,0,0,0,0,0,0,0,0,0,0,0,0,0,0,0,0,0,0,0,0,0,0,0,0,0,0,0,0,0,0,0,0,0,0,0,0,0,0,0,0,0,0,0,0,0,0,0,0,0,0,0,0,0,0,0,0,0,0,0,0,0,0,0,0,
0,0,0,0,0,0,0,0,0,0,0,0,0,0,0,0,0,0,0,0,0,0,0,0,0,0,0,0,0,0,0,0,0,0,0,0,0,0,0,0,0,0,0,0,0,0,0,0,0,0,0,0,0,0,0,0,0,0,0,0,0,0,0,0,0,0,0,0,0,0,0,0,0,0,0,0,0,0,0,0,0,0,0,0,0,0,0,0,0,0,0,0,0,0,0,0,0,0,0,0,
0,0,0,0,0,0,0,0,0,0,0,0,0,0,0,0,0,0,0,0,0,0,0,0,0,0,0,0,0,0,0,0,0,0,0,0,0,0,0,0,0,0,0,0,0,0,0,0,0,0,0,0,0,0,0,0,0,0,0,0,0,0,0,0,0,0,0,0,0,0,0,0,0,0,0,0,0,0,0,0,0,0,0,0,0,0,0,0,0,0,0,0,0,0,0,0,0,0,0,0
</data>
 </layer>
 <objectgroup id="4" name="Object Layer 1">
  <object id="2325" gid="36" x="486.79" y="960.74" width="16" height="16"/>
  <object id="2326" gid="36" x="506.12" y="964.09" width="16" height="16"/>
  <object id="2327" gid="36" x="509.79" y="984.74" width="16" height="16"/>
  <object id="2328" gid="36" x="494.46" y="977.41" width="16" height="16"/>
  <object id="2329" gid="36" x="506.12" y="999.74" width="16" height="16"/>
  <object id="2330" gid="36" x="510.12" y="1017.41" width="16" height="16"/>
  <object id="2331" gid="36" x="508.12" y="1035.74" width="16" height="16"/>
  <object id="2332" gid="36" x="274.12" y="1035.09" width="16" height="16"/>
  <object id="2333" gid="36" x="269.46" y="1019.74" width="16" height="16"/>
  <object id="2334" gid="36" x="275.79" y="1007.09" width="16" height="16"/>
  <object id="2335" gid="36" x="268.12" y="989.09" width="16" height="16"/>
  <object id="2336" gid="36" x="280.79" y="980.09" width="16" height="16"/>
  <object id="2337" gid="36" x="297.12" y="970.09" width="16" height="16"/>
  <object id="2338" gid="36" x="308.12" y="960.74" width="16" height="16"/>
  <object id="2339" gid="36" x="292.46" y="956.74" width="16" height="16"/>
  <object id="2340" gid="36" x="276.79" y="966.74" width="16" height="16"/>
  <object id="2341" gid="36" x="269.79" y="948.41" width="16" height="16"/>
  <object id="2342" gid="36" x="469.29" y="887.41" width="16" height="16"/>
  <object id="2343" gid="36" x="272.54" y="881.91" width="16" height="16"/>
  <object id="2344" gid="36" x="313.79" y="938.66" width="16" height="16"/>
  <object id="2345" gid="36" x="467.54" y="805.41" width="16" height="16"/>
  <object id="2346" gid="36" x="505.79" y="804.16" width="16" height="16"/>
  <object id="2347" gid="36" x="468.54" y="823.16" width="16" height="16"/>
  <object id="2348" gid="36" x="277.79" y="794.91" width="16" height="16"/>
  <object id="2349" gid="36" x="489.12" y="813.41" width="16" height="16"/>
  <object id="2350" gid="36" x="285.46" y="808.41" width="16" height="16"/>
  <object id="2351" gid="36" x="312.12" y="814.74" width="16" height="16"/>
  <object id="2352" gid="36" x="317.46" y="833.09" width="16" height="16"/>
  <object id="2353" gid="36" x="321.12" y="852.41" width="16" height="16"/>
  <object id="2354" gid="36" x="316.12" y="873.09" width="16" height="16"/>
  <object id="2355" gid="36" x="305.79" y="885.74" width="16" height="16"/>
  <object id="2356" gid="36" x="318.79" y="908.74" width="16" height="16"/>
  <object id="2357" gid="36" x="473.79" y="943.09" width="16" height="16"/>
  <object id="2358" gid="36" x="460.79" y="926.74" width="16" height="16"/>
  <object id="2359" gid="36" x="463.12" y="906.74" width="16" height="16"/>
  <object id="2360" gid="36" x="462.79" y="868.41" width="16" height="16"/>
  <object id="2361" gid="36" x="503.79" y="881.41" width="16" height="16"/>
  <object id="2362" gid="36" x="512.12" y="884.41" width="16" height="16"/>
  <object id="2363" gid="36" x="462.46" y="844.41" width="16" height="16"/>
  <object id="2364" gid="36" x="507.46" y="813.41" width="16" height="16"/>
  <object id="2365" gid="36" x="272.12" y="814.41" width="16" height="16"/>
  <object id="2366" gid="36" x="296.21" y="815.09" width="13.25" height="15.75"/>
  <object id="2367" gid="36" x="305.12" y="797.74" width="16" height="16"/>
  <object id="2368" gid="36" x="269.12" y="974.41" width="16" height="16"/>
  <object id="2369" gid="36" x="501.79" y="950.41" width="16" height="16"/>
  <object id="2370" gid="36" x="513.46" y="942.41" width="16" height="16"/>
  <object id="2371" gid="36" x="322.12" y="922.09" width="16" height="16"/>
  <object id="2372" gid="36" x="319.46" y="890.74" width="16" height="16"/>
  <object id="2373" gid="36" x="306.79" y="824.09" width="16" height="16"/>
  <object id="2374" gid="36" x="319.79" y="798.41" width="16" height="16"/>
  <object id="2375" gid="36" x="493.79" y="600.16" width="16" height="16"/>
  <object id="2376" gid="36" x="507.29" y="608.16" width="16" height="16"/>
  <object id="2377" gid="36" x="485.29" y="589.41" width="16" height="16"/>
  <object id="2378" gid="36" x="497.29" y="576.91" width="16" height="16"/>
  <object id="2379" gid="36" x="437.79" y="551.91" width="16" height="16"/>
  <object id="2380" gid="36" x="412.54" y="542.91" width="16" height="16"/>
  <object id="2381" gid="36" x="406.79" y="556.41" width="16" height="16"/>
  <object id="2382" gid="36" x="349.79" y="588.66" width="16" height="16"/>
  <object id="2383" gid="36" x="340.54" y="612.16" width="16" height="16"/>
  <object id="2384" gid="36" x="285.54" y="663.41" width="16" height="16"/>
  <object id="2385" gid="36" x="284.79" y="629.91" width="16" height="16"/>
  <object id="2386" gid="36" x="295.04" y="609.41" width="16" height="16"/>
  <object id="2387" gid="36" x="279.79" y="581.16" width="16" height="16"/>
  <object id="2388" gid="36" x="290.04" y="553.66" width="16" height="16"/>
  <object id="2389" gid="36" x="314.79" y="544.16" width="16" height="16"/>
  <object id="2390" gid="36" x="335.04" y="541.91" width="16" height="16"/>
  <object id="2391" gid="36" x="552.29" y="611.91" width="16" height="16"/>
  <object id="2392" gid="36" x="561.79" y="639.91" width="16" height="16"/>
  <object id="2393" gid="36" x="559.29" y="668.91" width="16" height="16"/>
  <object id="2394" gid="36" x="559.79" y="591.91" width="16" height="16"/>
  <object id="2395" gid="36" x="555.29" y="563.41" width="16" height="16"/>
  <object id="2396" gid="36" x="512.79" y="544.91" width="16" height="16"/>
  <object id="2397" gid="36" x="545.79" y="544.41" width="16" height="16"/>
  <object id="2398" gid="36" x="244.54" y="836.91" width="16" height="16"/>
  <object id="2399" gid="36" x="248.29" y="811.91" width="16" height="16"/>
  <object id="2400" gid="36" x="217.29" y="804.91" width="16" height="16"/>
  <object id="2401" gid="36" x="197.29" y="828.91" width="16" height="16"/>
  <object id="2402" gid="36" x="223.04" y="828.66" width="16" height="16"/>
  <object id="2403" gid="36" x="196.79" y="806.66" width="16" height="16"/>
  <object id="2404" gid="36" x="210.79" y="816.66" width="16" height="16"/>
  <object id="2405" gid="36" x="216.79" y="853.66" width="16" height="16"/>
  <object id="2406" gid="36" x="243.29" y="856.91" width="16" height="16"/>
  <object id="2407" gid="36" x="234.54" y="809.66" width="16" height="16"/>
  <object id="2408" gid="36" x="251.06" y="826.06" width="16" height="16"/>
  <object id="2409" gid="36" x="210.88" y="834.97" width="16" height="16"/>
  <object id="2410" gid="36" x="229.24" y="840.97" width="16" height="16"/>
  <object id="2411" gid="36" x="251.61" y="845.86" width="16" height="16"/>
  <object id="2412" gid="36" x="231.24" y="856.77" width="16" height="16"/>
  <object id="2413" gid="36" x="576.79" y="797.74" width="16" height="16"/>
  <object id="2414" gid="36" x="612.12" y="786.41" width="16" height="16"/>
  <object id="2415" gid="36" x="598.12" y="808.74" width="16" height="16"/>
  <object id="2416" gid="36" x="583.12" y="833.74" width="16" height="16"/>
  <object id="2417" gid="36" x="579.79" y="815.74" width="16" height="16"/>
  <object id="2418" gid="36" x="574.12" y="856.41" width="16" height="16"/>
  <object id="2419" gid="36" x="600.12" y="839.09" width="16" height="16"/>
  <object id="2420" gid="36" x="638.12" y="859.74" width="16" height="16"/>
  <object id="2421" gid="36" x="670.12" y="841.41" width="16" height="16"/>
  <object id="2422" gid="36" x="701.79" y="863.74" width="16" height="16"/>
  <object id="2423" gid="36" x="728.46" y="846.09" width="16" height="16"/>
  <object id="2424" gid="36" x="742.79" y="830.74" width="16" height="16"/>
  <object id="2425" gid="36" x="714.12" y="782.41" width="16" height="16"/>
  <object id="2426" gid="36" x="645.46" y="778.74" width="16" height="16"/>
  <object id="2427" gid="36" x="668.46" y="789.41" width="16" height="16"/>
  <object id="2428" gid="36" x="704.79" y="765.09" width="16" height="16"/>
  <object id="2429" gid="36" x="685.46" y="781.09" width="16" height="16"/>
  <object id="2430" gid="36" x="744.46" y="814.09" width="16" height="16"/>
  <object id="2431" gid="36" x="761.79" y="811.41" width="16" height="16"/>
  <object id="2432" gid="36" x="762.12" y="849.74" width="16" height="16"/>
  <object id="2433" gid="36" x="766.79" y="899.41" width="16" height="16"/>
  <object id="2434" gid="36" x="706.12" y="918.09" width="16" height="16"/>
  <object id="2435" gid="36" x="635.79" y="920.74" width="16" height="16"/>
  <object id="2436" gid="36" x="638.46" y="970.74" width="16" height="16"/>
  <object id="2437" gid="36" x="564.79" y="920.74" width="16" height="16"/>
  <object id="2438" gid="36" x="579.12" y="919.74" width="16" height="16"/>
  <object id="2439" gid="36" x="695.79" y="911.09" width="16" height="16"/>
  <object id="2440" gid="36" x="702.7" y="1037.14" width="16" height="16"/>
  <object id="2441" gid="36" x="763.79" y="984.41" width="16" height="16"/>
  <object id="2442" gid="36" x="564.12" y="982.74" width="16" height="16"/>
  <object id="2443" gid="36" x="158.46" y="907.74" width="16" height="16"/>
  <object id="2444" gid="36" x="189.79" y="924.41" width="16" height="16"/>
  <object id="2445" gid="36" x="191.12" y="960.41" width="16" height="16"/>
  <object id="2446" gid="36" x="197.12" y="981.74" width="16" height="16"/>
  <object id="2447" gid="36" x="125.79" y="978.41" width="16" height="16"/>
  <object id="2448" gid="36" x="135.12" y="1007.74" width="16" height="16"/>
  <object id="2449" gid="36" x="121.79" y="1028.41" width="16" height="16"/>
  <object id="2450" gid="36" x="64.46" y="924.41" width="16" height="16"/>
  <object id="2451" gid="36" x="28.46" y="891.09" width="16" height="16"/>
  <object id="2452" gid="36" x="29.12" y="863.74" width="16" height="16"/>
  <object id="2453" gid="36" x="61.12" y="842.41" width="16" height="16"/>
  <object id="2454" gid="36" x="97.79" y="866.41" width="16" height="16"/>
  <object id="2455" gid="36" x="125.12" y="783.74" width="16" height="16"/>
  <object id="2456" gid="36" x="203.12" y="769.09" width="16" height="16"/>
  <object id="2457" gid="36" x="150.46" y="753.09" width="16" height="16"/>
  <object id="2458" gid="36" x="191.79" y="755.09" width="16" height="16"/>
  <object id="2459" gid="36" x="157.12" y="768.41" width="16" height="16"/>
  <object id="2460" gid="35" x="1296.46" y="550.41" width="16" height="16"/>
  <object id="2461" gid="35" x="1015.79" y="763.09" width="16" height="16"/>
  <object id="2462" gid="35" x="1027.79" y="813.09" width="16" height="16"/>
  <object id="2463" gid="35" x="1097.12" y="853.74" width="16" height="16"/>
  <object id="2464" gid="35" x="1305.79" y="855.74" width="16" height="16"/>
  <object id="2465" gid="35" x="1331.12" y="804.41" width="16" height="16"/>
  <object id="2466" gid="35" x="1387.79" y="792.41" width="16" height="16"/>
  <object id="2467" gid="35" x="1373.79" y="761.74" width="16" height="16"/>
  <object id="2468" gid="35" x="1411.79" y="745.74" width="16" height="16"/>
  <object id="2469" gid="35" x="1405.79" y="709.74" width="16" height="16"/>
  <object id="2470" gid="35" x="1441.79" y="681.09" width="16" height="16"/>
  <object id="2471" gid="35" x="1415.12" y="627.09" width="16" height="16"/>
  <object id="2472" gid="35" x="1384.46" y="597.74" width="16" height="16"/>
  <object id="2473" gid="35" x="1351.12" y="579.09" width="16" height="16"/>
  <object id="2474" gid="35" x="1210.46" y="513.74" width="16" height="16"/>
  <object id="2475" gid="35" x="1116.46" y="509.09" width="16" height="16"/>
  <object id="2476" gid="35" x="1032.46" y="529.09" width="16" height="16"/>
  <object id="2477" gid="35" x="1035.79" y="568.41" width="16" height="16"/>
  <object id="2478" gid="35" x="991.79" y="584.41" width="16" height="16"/>
  <object id="2479" gid="35" x="1030.46" y="601.74" width="16" height="16"/>
  <object id="2480" gid="35" x="976.46" y="615.09" width="16" height="16"/>
  <object id="2481" gid="35" x="1015.79" y="628.41" width="16" height="16"/>
  <object id="2482" gid="35" x="986.46" y="778.41" width="16" height="16"/>
  <object id="2483" gid="35" x="1070.46" y="837.09" width="16" height="16"/>
  <object id="2484" gid="35" x="1127.79" y="837.74" width="16" height="16"/>
  <object id="2485" gid="35" x="1174.46" y="838.41" width="16" height="16"/>
  <object id="2486" gid="35" x="1237.79" y="839.74" width="16" height="16"/>
  <object id="2487" gid="35" x="1289.12" y="837.09" width="16" height="16"/>
  <object id="2488" gid="35" x="1163.79" y="510.41" width="16" height="16"/>
  <object id="2489" gid="35" x="1072.46" y="520.41" width="16" height="16"/>
  <object id="2490" gid="35" x="1243.12" y="513.74" width="16" height="16"/>
  <object id="2491" gid="35" x="1269.12" y="513.09" width="16" height="16"/>
  <object id="2492" gid="35" x="1309.79" y="525.09" width="16" height="16"/>
  <object id="2493" gid="35" x="1327.79" y="564.41" width="16" height="16"/>
  <object id="2494" gid="35" x="1345.79" y="597.09" width="16" height="16"/>
  <object id="2495" gid="35" x="1373.12" y="605.09" width="16" height="16"/>
  <object id="2496" gid="35" x="1389.12" y="628.41" width="16" height="16"/>
  <object id="2497" gid="35" x="1414.46" y="662.41" width="16" height="16"/>
  <object id="2498" gid="35" x="1423.12" y="697.74" width="16" height="16"/>
  <object id="2499" gid="35" x="1349.12" y="779.09" width="16" height="16"/>
  <object id="2500" gid="35" x="1362.46" y="805.09" width="16" height="16"/>
  <object id="2501" gid="35" x="987.12" y="756.41" width="16" height="16"/>
  <object id="2502" gid="35" x="811.79" y="753.09" width="16" height="16"/>
  <object id="2503" gid="35" x="856.46" y="754.41" width="16" height="16"/>
  <object id="2504" gid="35" x="900.46" y="753.09" width="16" height="16"/>
  <object id="2505" gid="35" x="952.46" y="748.41" width="16" height="16"/>
  <object id="2506" gid="35" x="975.12" y="642.41" width="16" height="16"/>
  <object id="2507" gid="35" x="939.79" y="643.09" width="16" height="16"/>
  <object id="2508" gid="35" x="882.46" y="642.41" width="16" height="16"/>
  <object id="2509" gid="35" x="848.46" y="645.09" width="16" height="16"/>
  <object id="2510" gid="35" x="815.79" y="643.74" width="16" height="16"/>
  <object id="2511" gid="35" x="1192.79" y="493.91" width="16" height="16"/>
  <object id="2512" gid="35" x="1190.79" y="518.91" width="16" height="16"/>
  <object id="2513" gid="35" x="1136.79" y="522.41" width="16" height="16"/>
  <object id="2514" gid="35" x="1140.79" y="494.91" width="16" height="16"/>
  <object id="2515" gid="35" x="1097.79" y="511.91" width="16" height="16"/>
  <object id="2516" gid="35" x="1054.79" y="543.41" width="16" height="16"/>
  <object id="2517" gid="35" x="1047.79" y="508.41" width="16" height="16"/>
  <object id="2518" gid="35" x="1017.79" y="551.41" width="16" height="16"/>
  <object id="2519" gid="35" x="1011.29" y="587.41" width="16" height="16"/>
  <object id="2520" gid="35" x="1002.29" y="613.41" width="16" height="16"/>
  <object id="2521" gid="35" x="998.29" y="645.41" width="16" height="16"/>
  <object id="2522" gid="35" x="1290.29" y="530.91" width="16" height="16"/>
  <object id="2523" gid="35" x="1322.29" y="544.41" width="16" height="16"/>
  <object id="2524" gid="35" x="1308.79" y="564.91" width="16" height="16"/>
  <object id="2525" gid="35" x="1354.29" y="556.91" width="16" height="16"/>
  <object id="2526" gid="35" x="1390.29" y="569.41" width="16" height="16"/>
  <object id="2527" gid="35" x="1371.29" y="580.91" width="16" height="16"/>
  <object id="2528" gid="35" x="1400.29" y="591.91" width="16" height="16"/>
  <object id="2529" gid="35" x="1404.29" y="608.41" width="16" height="16"/>
  <object id="2530" gid="35" x="1431.29" y="607.41" width="16" height="16"/>
  <object id="2531" gid="35" x="1384.29" y="738.41" width="16" height="16"/>
  <object id="2532" gid="35" x="1411.79" y="727.41" width="16" height="16"/>
  <object id="2533" gid="35" x="1324.79" y="785.41" width="16" height="16"/>
  <object id="2534" gid="35" x="1311.29" y="800.91" width="16" height="16"/>
  <object id="2535" gid="35" x="1270.79" y="823.91" width="16" height="16"/>
  <object id="2536" gid="35" x="1228.29" y="824.91" width="16" height="16"/>
  <object id="2537" gid="35" x="1201.29" y="825.91" width="16" height="16"/>
  <object id="2538" gid="35" x="1164.79" y="825.91" width="16" height="16"/>
  <object id="2539" gid="35" x="1117.29" y="825.91" width="16" height="16"/>
  <object id="2540" gid="35" x="1142.79" y="826.41" width="16" height="16"/>
  <object id="2541" gid="2147483684" x="292.54" y="776.66" width="16" height="16"/>
  <object id="2542" gid="2147483684" x="193.29" y="784.41" width="16" height="16"/>
  <object id="2543" gid="2147483684" x="304.79" y="764.41" width="16" height="16"/>
  <object id="2544" gid="2147483684" x="314.79" y="779.66" width="16" height="16"/>
  <object id="2545" gid="36" x="270.04" y="778.41" width="16" height="16"/>
  <object id="2546" gid="36" x="282.04" y="765.41" width="16" height="16"/>
  <object id="2547" gid="2147483684" x="320.54" y="765.16" width="16" height="16"/>
  <object id="2548" gid="36" x="220.54" y="788.91" width="16" height="16"/>
  <object id="2549" gid="2147483684" x="256.04" y="793.66" width="16" height="16"/>
  <object id="2550" gid="2147483684" x="238.79" y="793.91" width="16" height="16"/>
  <object id="2551" gid="36" x="175.04" y="768.16" width="16" height="16"/>
  <object id="2552" gid="36" x="136.29" y="772.16" width="16" height="16"/>
  <object id="2553" gid="36" x="147.54" y="781.91" width="16" height="16"/>
  <object id="2554" gid="2147483684" x="173.04" y="783.66" width="16" height="16"/>
  <object id="2555" gid="36" x="252.79" y="652.66" width="16" height="16"/>
  <object id="2556" gid="36" x="229.79" y="654.66" width="16" height="16"/>
  <object id="2557" gid="36" x="207.04" y="654.41" width="16" height="16"/>
  <object id="2558" gid="36" x="182.54" y="653.41" width="16" height="16"/>
  <object id="2559" gid="36" x="162.04" y="653.66" width="16" height="16"/>
  <object id="2560" gid="36" x="139.79" y="654.41" width="16" height="16"/>
  <object id="2561" gid="36" x="124.79" y="653.91" width="16" height="16"/>
  <object id="2562" gid="36" x="80.54" y="654.66" width="16" height="16"/>
  <object id="2563" gid="36" x="107.54" y="628.66" width="16" height="16"/>
  <object id="2564" gid="36" x="106.29" y="642.66" width="16" height="16"/>
  <object id="2565" gid="36" x="132.54" y="633.66" width="16" height="16"/>
  <object id="2566" gid="36" x="146.29" y="613.91" width="16" height="16"/>
  <object id="2567" gid="36" x="267.29" y="556.66" width="16" height="16"/>
  <object id="2568" gid="36" x="263.79" y="585.41" width="16" height="16"/>
  <object id="2569" gid="36" x="275.79" y="603.66" width="16" height="16"/>
  <object id="2570" gid="36" x="263.79" y="620.41" width="16" height="16"/>
  <object id="2571" gid="36" x="270.79" y="637.16" width="16" height="16"/>
  <object id="2572" gid="36" x="238.54" y="632.41" width="16" height="16"/>
  <object id="2573" gid="36" x="246.04" y="609.66" width="16" height="16"/>
  <object id="2574" gid="36" x="246.04" y="587.91" width="16" height="16"/>
  <object id="2575" gid="36" x="246.04" y="568.41" width="16" height="16"/>
  <object id="2576" gid="36" x="242.54" y="553.41" width="16" height="16"/>
  <object id="2577" gid="36" x="222.04" y="549.91" width="16" height="16"/>
  <object id="2578" gid="36" x="229.04" y="571.91" width="16" height="16"/>
  <object id="2579" gid="36" x="236.29" y="591.91" width="16" height="16"/>
  <object id="2580" gid="36" x="231.54" y="599.66" width="16" height="16"/>
  <object id="2581" gid="36" x="227.29" y="618.66" width="16" height="16"/>
  <object id="2582" gid="36" x="216.54" y="633.91" width="16" height="16"/>
  <object id="2583" gid="36" x="199.04" y="636.66" width="16" height="16"/>
  <object id="2584" gid="36" x="174.79" y="633.66" width="16" height="16"/>
  <object id="2585" gid="36" x="151.29" y="633.41" width="16" height="16"/>
  <object id="2586" gid="36" x="154.79" y="621.91" width="16" height="16"/>
  <object id="2587" gid="36" x="182.79" y="612.66" width="16" height="16"/>
  <object id="2588" gid="36" x="203.04" y="622.41" width="16" height="16"/>
  <object id="2589" gid="36" x="214.29" y="607.66" width="16" height="16"/>
  <object id="2590" gid="36" x="211.79" y="590.16" width="16" height="16"/>
  <object id="2591" gid="36" x="207.29" y="560.91" width="16" height="16"/>
  <object id="2592" gid="36" x="190.54" y="559.41" width="16" height="16"/>
  <object id="2593" gid="36" x="196.54" y="579.16" width="16" height="16"/>
  <object id="2594" gid="36" x="197.29" y="583.66" width="16" height="16"/>
  <object id="2595" gid="36" x="199.79" y="599.41" width="16" height="16"/>
  <object id="2596" gid="36" x="164.29" y="588.66" width="16" height="16"/>
  <object id="2597" gid="36" x="180.54" y="595.66" width="16" height="16"/>
  <object id="2598" gid="36" x="133.29" y="593.91" width="16" height="16"/>
  <object id="2599" gid="36" x="111.79" y="606.91" width="16" height="16"/>
  <object id="2600" gid="36" x="120.29" y="762.66" width="16" height="16"/>
  <object id="2601" gid="36" x="108.54" y="779.16" width="16" height="16"/>
  <object id="2602" gid="36" x="122.04" y="796.66" width="16" height="16"/>
  <object id="2603" gid="36" x="100.29" y="763.91" width="16" height="16"/>
  <object id="2604" gid="36" x="78.79" y="764.16" width="16" height="16"/>
  <object id="2605" gid="36" x="55.04" y="763.91" width="16" height="16"/>
  <object id="2606" gid="36" x="40.79" y="763.41" width="16" height="16"/>
  <object id="2607" gid="36" x="41.29" y="783.16" width="16" height="16"/>
  <object id="2608" gid="36" x="63.29" y="776.91" width="16" height="16"/>
  <object id="2609" gid="36" x="59.79" y="797.91" width="16" height="16"/>
  <object id="2610" gid="36" x="84.29" y="780.66" width="16" height="16"/>
  <object id="2611" gid="36" x="99.79" y="783.41" width="16" height="16"/>
  <object id="2612" gid="77" x="224.04" y="1033.16" width="48" height="64"/>
  <object id="2613" gid="77" x="229.79" y="1001.91" width="48" height="64"/>
  <object id="2614" gid="77" x="239.04" y="949.66" width="48" height="64"/>
  <object id="2615" gid="77" x="200.04" y="953.41" width="48" height="64"/>
  <object id="2616" gid="77" x="222.54" y="903.91" width="48" height="64"/>
  <object id="2617" gid="77" x="277.29" y="915.41" width="48" height="64"/>
  <object id="2618" gid="77" x="278.29" y="877.16" width="48" height="64"/>
  <object id="2619" gid="77" x="521.29" y="1026.91" width="48" height="64"/>
  <object id="2620" gid="77" x="515.43" y="998.23" width="48" height="64"/>
  <object id="2621" gid="77" x="517.06" y="951.51" width="48" height="64"/>
  <object id="2622" gid="77" x="477.97" y="924.06" width="48" height="64"/>
  <object id="2623" gid="77" x="523.24" y="903.86" width="48" height="64"/>
  <object id="2624" gid="77" x="481.97" y="858.77" width="48" height="64"/>
  <object id="2625" gid="77" x="525.24" y="849.14" width="48" height="64"/>
  <object id="2626" gid="77" x="518.52" y="795.86" width="48" height="64"/>
  <object id="2627" gid="77" x="470.7" y="788.41" width="48" height="64"/>
  <object id="2628" gid="77" x="564.12" y="1030.74" width="48" height="64"/>
  <object id="2629" gid="77" x="558.12" y="957.74" width="48" height="64"/>
  <object id="2630" gid="77" x="601.46" y="956.74" width="48" height="64"/>
  <object id="2631" gid="77" x="602.12" y="1000.41" width="48" height="64"/>
  <object id="2632" gid="77" x="619.12" y="1028.74" width="48" height="64"/>
  <object id="2633" gid="77" x="665.46" y="1015.74" width="48" height="64"/>
  <object id="2634" gid="77" x="714.46" y="1006.09" width="48" height="64"/>
  <object id="2635" gid="77" x="639.79" y="965.74" width="48" height="64"/>
  <object id="2636" gid="77" x="691.46" y="956.09" width="48" height="64"/>
  <object id="2637" gid="77" x="658.12" y="902.09" width="48" height="64"/>
  <object id="2638" gid="77" x="575.12" y="892.41" width="48" height="64"/>
  <object id="2639" gid="77" x="613.12" y="898.74" width="48" height="64"/>
  <object id="2640" gid="77" x="610.46" y="840.41" width="48" height="64"/>
  <object id="2641" gid="77" x="623.46" y="810.41" width="48" height="64"/>
  <object id="2642" gid="77" x="659.46" y="819.74" width="48" height="64"/>
  <object id="2643" gid="77" x="696.79" y="824.09" width="48" height="64"/>
  <object id="2644" gid="77" x="721.46" y="883.74" width="48" height="64"/>
  <object id="2645" gid="77" x="730.12" y="919.74" width="48" height="64"/>
  <object id="2646" gid="77" x="739.12" y="954.74" width="48" height="64"/>
  <object id="2647" gid="77" x="756.12" y="970.74" width="48" height="64"/>
  <object id="2648" gid="77" x="752.46" y="1036.09" width="48" height="64"/>
  <object id="2649" gid="77" x="779.12" y="1008.41" width="48" height="64"/>
  <object id="2650" gid="77" x="815.79" y="1007.09" width="48" height="64"/>
  <object id="2651" gid="77" x="831.46" y="1030.74" width="48" height="64"/>
  <object id="2652" gid="77" x="805.46" y="961.74" width="48" height="64"/>
  <object id="2653" gid="77" x="807.12" y="913.74" width="48" height="64"/>
  <object id="2654" gid="77" x="736.12" y="761.09" width="48" height="64"/>
  <object id="2655" gid="77" x="763.46" y="778.09" width="48" height="64"/>
  <object id="2656" gid="77" x="740.46" y="792.41" width="48" height="64"/>
  <object id="2657" gid="77" x="779.12" y="804.41" width="48" height="64"/>
  <object id="2658" gid="77" x="771.46" y="839.09" width="48" height="64"/>
  <object id="2659" gid="77" x="771.79" y="871.09" width="48" height="64"/>
  <object id="2660" gid="77" x="773.12" y="911.09" width="48" height="64"/>
  <object id="2661" gid="77" x="828.46" y="794.74" width="48" height="64"/>
  <object id="2662" gid="77" x="828.79" y="824.09" width="48" height="64"/>
  <object id="2663" gid="77" x="826.46" y="859.74" width="48" height="64"/>
  <object id="2664" gid="77" x="850.46" y="870.74" width="48" height="64"/>
  <object id="2665" gid="77" x="851.79" y="902.41" width="48" height="64"/>
  <object id="2666" gid="77" x="847.79" y="938.74" width="48" height="64"/>
  <object id="2667" gid="77" x="866.12" y="975.74" width="48" height="64"/>
  <object id="2668" gid="77" x="883.12" y="1019.09" width="48" height="64"/>
  <object id="2669" gid="77" x="927.12" y="1025.74" width="48" height="64"/>
  <object id="2670" gid="77" x="977.12" y="1029.74" width="48" height="64"/>
  <object id="2671" gid="77" x="989.12" y="963.74" width="48" height="64"/>
  <object id="2672" gid="77" x="943.46" y="953.41" width="48" height="64"/>
  <object id="2673" gid="77" x="953.46" y="982.09" width="48" height="64"/>
  <object id="2674" gid="77" x="917.12" y="958.41" width="48" height="64"/>
  <object id="2675" gid="77" x="567.54" y="774.16" width="48" height="64"/>
  <object id="2676" gid="77" x="613.29" y="762.41" width="48" height="64"/>
  <object id="2677" gid="77" x="643.79" y="758.16" width="48" height="64"/>
  <object id="2678" gid="77" x="673.79" y="760.66" width="48" height="64"/>
  <object id="2679" gid="77" x="705.29" y="757.16" width="48" height="64"/>
  <object id="2680" gid="77" x="474.04" y="812.41" width="48" height="64"/>
  <object id="2681" gid="77" x="191.29" y="1029.91" width="48" height="64"/>
  <object id="2682" gid="77" x="151.29" y="1020.41" width="48" height="64"/>
  <object id="2683" gid="77" x="80.79" y="1033.66" width="48" height="64"/>
  <object id="2684" gid="77" x="42.54" y="1033.41" width="48" height="64"/>
  <object id="2685" gid="77" x="15.54" y="1029.41" width="48" height="64"/>
  <object id="2686" gid="77" x="33.79" y="989.66" width="48" height="64"/>
  <object id="2687" gid="77" x="60.29" y="990.41" width="48" height="64"/>
  <object id="2688" gid="77" x="96.04" y="965.16" width="48" height="64"/>
  <object id="2689" gid="77" x="125.54" y="961.66" width="48" height="64"/>
  <object id="2690" gid="77" x="148.54" y="975.16" width="48" height="64"/>
  <object id="2691" gid="77" x="166.04" y="913.91" width="48" height="64"/>
  <object id="2692" gid="77" x="188.04" y="885.41" width="48" height="64"/>
  <object id="2693" gid="77" x="148.29" y="868.66" width="48" height="64"/>
  <object id="2694" gid="77" x="164.04" y="823.16" width="48" height="64"/>
  <object id="2695" gid="77" x="116.29" y="831.66" width="48" height="64"/>
  <object id="2696" gid="77" x="112.04" y="870.66" width="48" height="64"/>
  <object id="2697" gid="77" x="126.79" y="893.91" width="48" height="64"/>
  <object id="2698" gid="77" x="93.04" y="905.91" width="48" height="64"/>
  <object id="2699" gid="77" x="55.54" y="904.66" width="48" height="64"/>
  <object id="2700" gid="77" x="70.04" y="847.16" width="48" height="64"/>
  <object id="2701" gid="77" x="78.54" y="810.16" width="48" height="64"/>
  <object id="2702" gid="77" x="28.29" y="826.41" width="48" height="64"/>
  <object id="2703" gid="77" x="28.29" y="867.91" width="48" height="64"/>
  <object id="2704" gid="77" x="22.79" y="916.66" width="48" height="64"/>
  <object id="2705" gid="77" x="12.54" y="941.66" width="48" height="64"/>
  <object id="2706" gid="77" x="681.04" y="848.16" width="48" height="64"/>
  <object id="2707" gid="77" x="252.12" y="825.74" width="48" height="64"/>
  <object id="2708" gid="77" x="242.79" y="765.74" width="48" height="64"/>
  <object id="2709" gid="77" x="214.46" y="766.41" width="48" height="64"/>
  <object id="2710" gid="77" x="185.12" y="765.41" width="48" height="64"/>
  <object id="2711" gid="77" x="153.79" y="767.09" width="48" height="64"/>
  <object id="2712" gid="77" x="123.12" y="767.09" width="48" height="64"/>
  <object id="2713" gid="77" x="277.54" y="765.16" width="48" height="64"/>
  <object id="2714" gid="77" x="303.54" y="769.91" width="48" height="64"/>
  <object id="2715" gid="77" x="302.54" y="799.91" width="48" height="64"/>
  <object id="2716" gid="77" x="301.79" y="821.66" width="48" height="64"/>
  <object id="2717" gid="77" x="309.79" y="653.74" width="48" height="64"/>
  <object id="2718" gid="77" x="279.79" y="653.41" width="48" height="64"/>
  <object id="2719" gid="77" x="249.46" y="653.09" width="48" height="64"/>
  <object id="2720" gid="77" x="219.12" y="653.41" width="48" height="64"/>
  <object id="2721" gid="77" x="185.79" y="652.41" width="48" height="64"/>
  <object id="2722" gid="77" x="150.79" y="653.09" width="48" height="64"/>
  <object id="2723" gid="77" x="120.12" y="651.41" width="48" height="64"/>
  <object id="2724" gid="77" x="77.12" y="653.41" width="48" height="64"/>
  <object id="2725" gid="77" x="48.46" y="653.09" width="48" height="64"/>
  <object id="2726" gid="77" x="87.12" y="768.09" width="48" height="64"/>
  <object id="2727" gid="77" x="53.79" y="768.74" width="48" height="64"/>
  <object id="2728" gid="77" x="23.79" y="767.09" width="48" height="64"/>
  <object id="2729" gid="77" x="503.12" y="664.74" width="48" height="64"/>
  <object id="2730" gid="77" x="535.79" y="666.74" width="48" height="64"/>
  <object id="2731" gid="77" x="565.46" y="654.41" width="48" height="64"/>
  <object id="2732" gid="77" x="602.12" y="652.74" width="48" height="64"/>
  <object id="2733" gid="77" x="629.12" y="654.74" width="48" height="64"/>
  <object id="2734" gid="77" x="667.79" y="653.41" width="48" height="64"/>
  <object id="2735" gid="77" x="706.46" y="652.74" width="48" height="64"/>
  <object id="2736" gid="77" x="744.12" y="652.41" width="48" height="64"/>
  <object id="2737" gid="77" x="771.79" y="654.41" width="48" height="64"/>
  <object id="2738" gid="77" x="811.46" y="652.09" width="48" height="64"/>
  <object id="2739" gid="77" x="848.12" y="654.09" width="48" height="64"/>
  <object id="2740" gid="77" x="885.12" y="653.41" width="48" height="64"/>
  <object id="2741" gid="77" x="814.12" y="755.74" width="48" height="64"/>
  <object id="2742" gid="77" x="857.79" y="756.09" width="48" height="64"/>
  <object id="2743" gid="77" x="900.12" y="756.09" width="48" height="64"/>
  <object id="2744" gid="77" x="943.46" y="755.41" width="48" height="64"/>
  <object id="2745" gid="77" x="568.29" y="822.41" width="48" height="64"/>
  <object id="2746" gid="77" x="643.29" y="839.41" width="48" height="64"/>
  <object id="2747" gid="77" x="693.29" y="878.41" width="48" height="64"/>
  <object id="2748" gid="77" x="693.79" y="898.91" width="48" height="64"/>
  <object id="2749" gid="77" x="732.79" y="823.41" width="48" height="64"/>
  <object id="2750" gid="77" x="797.79" y="835.91" width="48" height="64"/>
  <object id="2751" gid="77" x="937.79" y="789.91" width="48" height="64"/>
  <object id="2752" gid="77" x="972.29" y="818.41" width="48" height="64"/>
  <object id="2753" gid="77" x="996.79" y="835.91" width="48" height="64"/>
  <object id="2754" gid="77" x="1017.29" y="850.91" width="48" height="64"/>
  <object id="2755" gid="77" x="1036.79" y="871.91" width="48" height="64"/>
  <object id="2756" gid="77" x="1061.79" y="881.91" width="48" height="64"/>
  <object id="2757" gid="77" x="1099.29" y="885.41" width="48" height="64"/>
  <object id="2758" gid="77" x="1134.79" y="885.91" width="48" height="64"/>
  <object id="2759" gid="77" x="1170.29" y="887.91" width="48" height="64"/>
  <object id="2760" gid="77" x="1207.79" y="915.41" width="48" height="64"/>
  <object id="2761" gid="77" x="1211.79" y="875.91" width="48" height="64"/>
  <object id="2762" gid="77" x="1243.79" y="878.91" width="48" height="64"/>
  <object id="2763" gid="77" x="1255.79" y="910.91" width="48" height="64"/>
  <object id="2764" gid="77" x="1289.29" y="907.91" width="48" height="64"/>
  <object id="2765" gid="77" x="1358.79" y="908.91" width="48" height="64"/>
  <object id="2766" gid="77" x="1325.79" y="898.91" width="48" height="64"/>
  <object id="2767" gid="77" x="1324.29" y="848.41" width="48" height="64"/>
  <object id="2768" gid="77" x="1353.79" y="869.91" width="48" height="64"/>
  <object id="2769" gid="77" x="1385.29" y="833.91" width="48" height="64"/>
  <object id="2770" gid="77" x="1401.79" y="860.41" width="48" height="64"/>
  <object id="2771" gid="77" x="1386.29" y="877.91" width="48" height="64"/>
  <object id="2772" gid="77" x="1393.79" y="783.91" width="48" height="64"/>
  <object id="2773" gid="77" x="1418.79" y="806.91" width="48" height="64"/>
  <object id="2774" gid="77" x="1428.29" y="833.91" width="48" height="64"/>
  <object id="2775" gid="77" x="1422.79" y="740.41" width="48" height="64"/>
  <object id="2776" gid="77" x="1443.29" y="760.41" width="48" height="64"/>
  <object id="2777" gid="77" x="1451.79" y="789.41" width="48" height="64"/>
  <object id="2778" gid="77" x="1446.29" y="695.41" width="48" height="64"/>
  <object id="2779" gid="77" x="1463.29" y="717.41" width="48" height="64"/>
  <object id="2780" gid="77" x="1476.29" y="749.41" width="48" height="64"/>
  <object id="2781" gid="77" x="1491.79" y="765.41" width="48" height="64"/>
  <object id="2782" gid="77" x="1464.29" y="597.41" width="48" height="64"/>
  <object id="2783" gid="77" x="1508.29" y="722.41" width="48" height="64"/>
  <object id="2784" gid="77" x="1481.79" y="675.91" width="48" height="64"/>
  <object id="2785" gid="77" x="1442.29" y="633.41" width="48" height="64"/>
  <object id="2786" gid="77" x="1481.79" y="619.41" width="48" height="64"/>
  <object id="2787" gid="77" x="1410.29" y="652.41" width="48" height="64"/>
  <object id="2788" gid="77" x="1418.79" y="585.91" width="48" height="64"/>
  <object id="2789" gid="77" x="1440.79" y="565.41" width="48" height="64"/>
  <object id="2790" gid="77" x="1408.29" y="554.41" width="48" height="64"/>
  <object id="2791" gid="77" x="1385.29" y="563.41" width="48" height="64"/>
  <object id="2792" gid="77" x="1363.79" y="546.41" width="48" height="64"/>
  <object id="2793" gid="77" x="1382.79" y="522.41" width="48" height="64"/>
  <object id="2794" gid="77" x="1334.79" y="517.91" width="48" height="64"/>
  <object id="2795" gid="77" x="1302.29" y="507.41" width="48" height="64"/>
  <object id="2796" gid="77" x="1272.29" y="506.91" width="48" height="64"/>
  <object id="2797" gid="77" x="1339.29" y="479.91" width="48" height="64"/>
  <object id="2798" gid="77" x="1298.79" y="475.41" width="48" height="64"/>
  <object id="2799" gid="77" x="1248.29" y="476.41" width="48" height="64"/>
  <object id="2800" gid="77" x="1239.29" y="498.41" width="48" height="64"/>
  <object id="2801" gid="77" x="1210.29" y="461.91" width="48" height="64"/>
  <object id="2802" gid="77" x="1208.79" y="491.41" width="48" height="64"/>
  <object id="2803" gid="77" x="1171.29" y="461.41" width="48" height="64"/>
  <object id="2804" gid="77" x="1160.79" y="480.41" width="48" height="64"/>
  <object id="2805" gid="77" x="1127.29" y="456.41" width="48" height="64"/>
  <object id="2806" gid="77" x="1117.79" y="476.41" width="48" height="64"/>
  <object id="2807" gid="77" x="1076.29" y="472.41" width="48" height="64"/>
  <object id="2808" gid="77" x="1092.29" y="450.91" width="48" height="64"/>
  <object id="2809" gid="77" x="1058.29" y="481.91" width="48" height="64"/>
  <object id="2810" gid="77" x="1095.29" y="493.91" width="48" height="64"/>
  <object id="2811" gid="77" x="1039.29" y="469.41" width="48" height="64"/>
  <object id="2812" gid="77" x="1003.29" y="498.91" width="48" height="64"/>
  <object id="2813" gid="77" x="985.79" y="520.91" width="48" height="64"/>
  <object id="2814" gid="77" x="963.79" y="542.91" width="48" height="64"/>
  <object id="2815" gid="77" x="1018.29" y="461.41" width="48" height="64"/>
  <object id="2816" gid="77" x="993.29" y="458.91" width="48" height="64"/>
  <object id="2817" gid="77" x="963.29" y="476.41" width="48" height="64"/>
  <object id="2818" gid="77" x="941.29" y="498.91" width="48" height="64"/>
  <object id="2819" gid="77" x="927.29" y="519.41" width="48" height="64"/>
  <object id="2820" gid="77" x="939.29" y="556.91" width="48" height="64"/>
  <object id="2821" gid="77" x="906.29" y="551.91" width="48" height="64"/>
  <object id="2822" gid="77" x="917.29" y="583.91" width="48" height="64"/>
  <object id="2823" gid="77" x="882.79" y="575.91" width="48" height="64"/>
  <object id="2824" gid="77" x="963.29" y="575.41" width="48" height="64"/>
  <object id="2825" gid="77" x="937.29" y="595.91" width="48" height="64"/>
  <object id="2826" gid="77" x="931.29" y="621.41" width="48" height="64"/>
  <object id="2827" gid="77" x="895.29" y="609.41" width="48" height="64"/>
  <object id="2828" gid="77" x="869.79" y="595.41" width="48" height="64"/>
  <object id="2829" gid="77" x="911.29" y="621.91" width="48" height="64"/>
  <object id="2830" gid="77" x="1037.79" y="490.41" width="48" height="64"/>
  <object id="2831" gid="77" x="1033.79" y="889.09" width="48" height="64"/>
  <object id="2832" gid="77" x="1029.46" y="925.41" width="48" height="64"/>
  <object id="2833" gid="77" x="1012.46" y="980.74" width="48" height="64"/>
  <object id="2834" gid="77" x="1016.12" y="1024.74" width="48" height="64"/>
  <object id="2835" name="Main Character Spawn Point" x="400.54" y="1010.66">
   <point/>
  </object>
  <object id="2836" gid="77" x="206.79" y="823.41" width="48" height="64"/>
  <object id="2837" gid="77" x="232.79" y="857.41" width="48" height="64"/>
  <object id="2838" gid="77" x="188.79" y="973.74" width="48" height="64"/>
  <object id="2839" gid="77" x="122.46" y="1026.74" width="48" height="64"/>
  <object id="2840" gid="77" x="159.46" y="1037.09" width="48" height="64"/>
  <object id="2841" gid="77" x="105.79" y="985.41" width="48" height="64"/>
  <object id="2842" gid="77" x="54.46" y="944.09" width="48" height="64"/>
  <object id="2843" gid="77" x="81.79" y="918.09" width="48" height="64"/>
  <object id="2844" gid="77" x="126.12" y="915.74" width="48" height="64"/>
  <object id="2845" gid="77" x="160.46" y="925.41" width="48" height="64"/>
  <object id="2846" gid="77" x="198.79" y="911.74" width="48" height="64"/>
  <object id="2847" gid="77" x="279.79" y="937.09" width="48" height="64"/>
  <object id="2848" gid="77" x="263.46" y="959.74" width="48" height="64"/>
  <object id="2849" gid="77" x="471.46" y="873.09" width="48" height="64"/>
  <object id="2850" gid="77" x="459.79" y="812.74" width="48" height="64"/>
  <object id="2851" gid="77" x="560.46" y="980.09" width="48" height="64"/>
  <object id="2852" gid="77" x="573.46" y="916.09" width="48" height="64"/>
  <object id="2853" gid="77" x="614.46" y="917.41" width="48" height="64"/>
  <object id="2854" gid="77" x="650.46" y="922.74" width="48" height="64"/>
  <object id="2855" gid="77" x="670.12" y="966.09" width="48" height="64"/>
  <object id="2856" gid="77" x="700.46" y="1027.09" width="48" height="64"/>
  <object id="2857" gid="77" x="666.79" y="1031.41" width="48" height="64"/>
  <object id="2858" gid="77" x="792.46" y="1026.09" width="48" height="64"/>
  <object id="2859" gid="77" x="779.46" y="926.41" width="48" height="64"/>
  <object id="2860" gid="77" x="871.12" y="781.74" width="48" height="64"/>
  <object id="2861" gid="77" x="903.46" y="777.74" width="48" height="64"/>
  <object id="2862" gid="77" x="879.79" y="806.74" width="48" height="64"/>
  <object id="2863" gid="77" x="916.46" y="806.09" width="48" height="64"/>
  <object id="2864" gid="77" x="945.12" y="809.41" width="48" height="64"/>
  <object id="2865" gid="77" x="984.79" y="756.09" width="48" height="64"/>
  <object id="2866" gid="77" x="1009.79" y="780.09" width="48" height="64"/>
  <object id="2867" gid="77" x="998.12" y="863.09" width="48" height="64"/>
  <object id="2868" gid="77" x="1000.46" y="897.09" width="48" height="64"/>
  <object id="2869" gid="77" x="1059.12" y="1027.74" width="48" height="64"/>
  <object id="2870" gid="77" x="1511.46" y="983.41" width="48" height="64"/>
  <object id="2871" gid="77" x="1490.79" y="997.09" width="48" height="64"/>
  <object id="2872" gid="77" x="1454.79" y="1023.41" width="48" height="64"/>
  <object id="2873" gid="77" x="1499.79" y="1030.74" width="48" height="64"/>
  <object id="2874" gid="77" x="1441.12" y="1036.41" width="48" height="64"/>
 </objectgroup>
 <layer id="7" name="Tile Layer 2" width="100" height="75">
  <data encoding="csv">
0,0,0,0,0,0,0,0,0,0,0,0,0,0,0,0,0,0,0,0,0,0,0,0,0,0,0,0,0,0,0,0,0,0,0,0,0,0,0,0,0,0,0,0,0,0,0,0,0,0,0,0,0,0,0,0,0,0,0,0,0,0,0,0,0,0,0,0,0,0,0,0,0,0,0,0,0,0,0,0,0,0,0,0,0,0,0,0,0,0,0,0,0,0,0,0,0,0,0,0,
0,0,0,0,0,0,0,0,0,0,0,0,0,0,0,0,0,0,0,0,0,0,0,0,0,0,0,0,0,0,0,0,0,0,0,0,0,0,0,0,0,0,0,0,0,0,0,0,0,0,0,0,0,0,0,0,0,0,0,0,0,0,0,0,0,0,0,0,0,0,0,0,0,0,0,0,0,0,0,0,0,0,0,0,0,0,0,0,0,0,0,0,0,0,0,0,0,0,0,0,
0,0,0,0,0,0,0,0,0,0,0,0,0,0,0,0,0,0,0,0,0,0,0,0,0,0,0,0,0,0,0,0,0,0,0,0,0,0,0,0,0,0,0,0,0,0,0,0,0,0,0,0,0,0,0,0,0,0,0,0,0,0,0,0,0,0,0,0,0,0,0,0,0,0,0,0,0,0,0,0,0,0,0,0,0,0,0,0,0,0,0,0,0,0,0,0,0,0,0,0,
0,0,0,0,0,0,0,0,0,0,0,0,0,0,0,0,0,0,0,0,0,0,0,0,0,0,0,0,0,0,0,0,0,0,0,0,0,0,0,0,0,0,0,0,0,0,0,0,0,0,0,0,0,0,0,0,0,0,0,0,0,0,0,0,0,0,0,0,0,0,0,0,0,0,0,0,0,0,0,0,0,0,0,0,0,0,0,0,0,0,0,0,0,0,0,0,0,0,0,0,
0,0,0,0,0,0,0,0,0,0,0,0,0,0,0,0,0,0,0,0,0,0,0,0,0,0,0,0,0,0,0,0,0,0,0,0,0,0,0,0,0,0,0,0,0,0,0,0,0,0,0,0,0,0,0,0,0,0,0,0,0,0,0,0,0,0,0,0,0,0,0,0,0,0,0,0,0,0,0,0,0,0,0,0,0,0,0,0,0,0,0,0,0,0,0,0,0,0,0,0,
0,0,0,0,0,0,0,0,0,0,0,0,0,0,0,0,0,0,0,0,0,0,0,0,0,0,0,0,0,0,0,0,0,0,0,0,0,0,0,0,0,0,0,0,0,0,0,0,0,0,0,0,0,0,0,0,0,0,0,0,0,0,0,0,0,0,0,0,0,0,0,0,0,0,0,0,0,0,0,0,0,0,0,0,0,0,0,0,0,0,0,0,0,0,0,0,0,0,0,0,
0,0,0,0,0,0,0,0,0,0,0,0,0,0,0,0,0,0,0,0,0,0,0,0,0,0,0,0,0,0,0,0,0,0,0,0,0,0,0,0,0,0,0,0,0,0,0,0,0,0,0,0,0,0,0,0,0,0,0,0,0,0,0,0,0,0,0,0,0,0,0,0,0,0,0,0,0,0,0,0,0,0,0,0,0,0,0,0,0,0,0,0,0,0,0,0,0,0,0,0,
0,0,0,0,0,0,0,0,0,0,0,0,0,0,0,0,0,0,0,0,0,0,0,0,0,0,0,0,0,0,0,0,0,0,0,0,0,0,0,0,0,0,0,0,0,0,0,0,0,0,0,0,0,0,0,0,0,0,0,0,0,0,0,0,0,0,0,0,0,0,0,0,0,0,0,0,0,0,0,0,0,0,0,0,0,0,0,0,0,0,0,0,0,0,0,0,0,0,0,0,
0,0,0,0,0,0,0,0,0,0,0,0,0,0,0,0,0,0,0,0,0,0,0,0,0,0,0,0,0,0,0,0,0,0,0,0,0,0,0,0,0,0,0,0,0,0,0,0,0,0,0,0,0,0,0,0,0,0,0,0,0,0,0,0,0,0,0,0,0,0,0,0,0,0,0,0,0,0,0,0,0,0,0,0,0,0,0,0,0,0,0,0,0,0,0,0,0,0,0,0,
0,0,0,0,0,0,0,0,0,0,0,0,0,0,0,0,0,0,0,0,0,0,0,0,0,0,0,0,0,0,0,0,0,0,0,0,0,0,0,0,0,0,0,0,0,0,0,0,0,0,0,0,0,0,0,0,0,0,0,0,0,0,0,0,0,0,0,0,0,0,0,0,0,0,0,0,0,0,0,0,0,0,0,0,0,0,0,0,0,0,0,0,0,0,0,0,0,0,0,0,
0,0,0,0,0,0,0,0,0,0,0,0,0,0,0,0,0,0,0,0,0,0,0,0,0,0,0,0,0,0,0,0,0,0,0,0,0,0,0,0,0,0,0,0,0,0,0,0,0,0,0,0,0,0,0,0,0,0,0,0,0,0,0,0,0,0,0,0,0,0,0,0,0,0,0,0,0,0,0,0,0,0,0,0,0,0,0,0,0,0,0,0,0,0,0,0,0,0,0,0,
0,0,0,0,0,0,0,0,0,0,0,0,0,0,0,0,0,0,0,0,0,0,0,0,0,0,0,0,0,0,0,0,0,0,0,0,0,0,0,0,0,0,0,0,0,0,0,0,0,0,0,0,0,0,0,0,0,0,0,0,0,0,0,0,0,0,0,0,0,0,0,0,0,0,0,0,0,0,0,0,0,0,0,0,0,0,0,0,0,0,0,0,0,0,0,0,0,0,0,0,
0,0,0,0,0,0,0,0,0,0,0,0,0,0,0,0,0,0,0,0,0,0,0,0,0,0,0,0,0,0,0,0,0,0,0,0,0,0,0,0,0,0,0,0,0,0,0,0,0,0,0,0,0,0,0,0,0,0,0,0,0,0,0,0,0,0,0,0,0,0,0,0,0,0,0,0,0,0,0,0,0,0,0,0,0,0,0,0,0,0,0,0,0,0,0,0,0,0,0,0,
0,0,0,0,0,0,0,0,0,0,0,0,0,0,0,0,0,0,0,0,0,0,0,0,0,0,0,0,0,0,0,0,0,0,0,0,0,0,0,0,0,0,0,0,0,0,0,0,0,0,0,0,0,0,0,0,0,0,0,0,0,0,0,0,0,0,0,0,0,0,0,0,0,0,0,0,0,0,0,0,0,0,0,0,0,0,0,0,0,0,0,0,0,0,0,0,0,0,0,0,
0,0,0,0,0,0,0,0,0,0,0,0,0,0,0,0,0,0,0,0,0,0,0,0,0,0,0,0,0,0,0,0,0,0,0,0,0,0,0,0,0,0,0,0,0,0,0,0,0,0,0,0,0,0,0,0,0,0,0,0,0,0,0,0,0,0,0,0,0,0,0,0,0,0,0,0,0,0,0,0,0,0,0,0,0,0,0,0,0,0,0,0,0,0,0,0,0,0,0,0,
0,0,0,0,0,0,0,0,0,0,0,0,0,0,0,0,0,0,0,0,0,0,0,0,0,0,0,0,0,0,0,0,0,0,0,0,0,0,0,0,0,0,0,0,0,0,0,0,0,0,0,0,0,0,0,0,0,0,0,0,0,0,0,0,0,0,0,0,0,0,0,0,0,0,0,0,0,0,0,0,0,0,0,0,0,0,0,0,0,0,0,0,0,0,0,0,0,0,0,0,
0,0,0,0,0,0,0,0,0,0,0,0,0,0,0,0,0,0,0,0,0,0,0,0,0,0,0,0,0,0,0,0,0,0,0,0,0,0,0,0,0,0,0,0,0,0,0,0,0,0,0,0,0,0,0,0,0,0,0,0,0,0,0,0,0,0,0,0,0,0,0,0,0,0,0,0,0,0,0,0,0,0,0,0,0,0,0,0,0,0,0,0,0,0,0,0,0,0,0,0,
0,0,0,0,0,0,0,0,0,0,0,0,0,0,0,0,0,0,0,0,0,0,0,0,0,0,0,0,0,0,0,0,0,0,0,0,0,0,0,0,0,0,0,0,0,0,0,0,0,0,0,0,0,0,0,0,0,0,0,0,0,0,0,0,0,0,0,0,0,0,0,0,0,0,0,0,0,0,0,0,0,0,0,0,0,0,0,0,0,0,0,0,0,0,0,0,0,0,0,0,
0,0,0,0,0,0,0,0,0,0,0,0,0,0,0,0,0,0,0,0,0,0,0,0,0,0,0,0,0,0,0,0,0,0,0,0,0,0,0,0,0,0,0,0,0,0,0,0,0,0,0,0,0,0,0,0,0,0,0,0,0,0,0,0,0,0,0,0,0,0,0,0,0,0,0,0,0,0,0,0,0,0,0,0,0,0,0,0,0,0,0,0,0,0,0,0,0,0,0,0,
0,0,0,0,0,0,0,0,0,0,0,0,0,0,0,0,0,0,0,0,0,0,0,0,0,0,0,0,0,0,0,0,0,0,0,0,0,0,0,0,0,0,0,0,0,0,0,0,0,0,0,0,0,0,0,0,0,0,0,0,0,0,0,0,0,0,0,0,0,0,0,0,0,0,0,0,0,0,0,0,0,0,0,0,0,0,0,0,0,0,0,0,0,0,0,0,0,0,0,0,
0,0,0,0,0,0,0,0,0,0,0,0,0,0,0,0,0,0,0,0,0,0,0,0,0,0,0,0,0,0,0,0,0,0,0,0,0,0,0,0,0,0,0,0,0,0,0,0,0,0,0,0,0,0,0,0,0,0,0,0,0,0,0,0,0,0,0,0,0,0,0,0,0,0,0,0,0,0,0,0,0,0,0,0,0,0,0,0,0,0,0,0,0,0,0,0,0,0,0,0,
0,0,0,0,0,0,0,0,0,0,0,0,0,0,0,0,0,0,0,0,0,0,0,0,0,0,0,0,0,0,0,0,0,0,0,0,0,0,0,0,0,0,0,0,0,0,0,0,0,0,0,0,0,0,0,0,0,0,0,0,0,0,0,0,0,0,0,0,0,0,0,0,0,0,0,0,0,0,0,0,0,0,0,0,0,0,0,0,0,0,0,0,0,0,0,0,0,0,0,0,
0,0,0,0,0,0,0,0,0,0,0,0,0,0,0,0,0,0,0,0,0,0,0,0,0,0,0,0,0,0,0,0,0,0,0,0,0,0,0,0,0,0,0,0,0,0,0,0,0,0,0,0,0,0,0,0,0,0,0,0,0,0,0,0,0,0,0,0,0,0,0,0,0,0,0,0,0,0,0,0,0,0,0,0,0,0,0,0,0,0,0,0,0,0,0,0,0,0,0,0,
0,0,0,0,0,0,0,0,0,0,0,0,0,0,0,0,0,0,0,0,0,0,0,0,0,0,0,0,0,0,0,0,0,0,0,0,0,0,0,0,0,0,0,0,0,0,0,0,0,0,0,0,0,0,0,0,0,0,0,0,0,0,0,0,0,0,0,0,0,0,0,0,0,0,0,0,0,0,0,0,0,0,0,0,0,0,0,0,0,0,0,0,0,0,0,0,0,0,0,0,
0,0,0,0,0,0,0,0,0,0,0,0,0,0,0,0,0,0,0,0,0,0,0,0,0,0,0,0,0,0,0,0,0,0,0,0,0,0,0,0,0,0,0,0,0,0,0,0,0,0,0,0,0,0,0,0,0,0,0,0,0,0,0,0,0,0,0,0,0,0,0,0,0,0,0,0,0,0,0,0,0,0,0,0,0,0,0,0,0,0,0,0,0,0,0,0,0,0,0,0,
0,0,0,0,0,0,0,0,0,0,0,0,0,0,0,0,0,0,0,0,0,0,0,0,0,0,0,0,0,0,0,0,0,0,0,0,0,0,0,0,0,0,0,0,0,0,0,0,0,0,0,0,0,0,0,0,0,0,0,0,0,0,0,0,0,0,0,0,0,0,0,0,0,0,0,0,0,0,0,0,0,0,0,0,0,0,0,0,0,0,0,0,0,0,0,0,0,0,0,0,
0,0,0,0,0,0,0,0,0,0,0,0,0,0,0,0,0,0,0,0,0,0,0,0,0,0,0,0,0,0,0,0,0,0,0,0,0,0,0,0,0,0,0,0,0,0,0,0,0,0,0,0,0,0,0,0,0,0,0,0,0,0,0,0,0,0,0,0,0,0,0,0,0,0,0,0,0,0,0,0,0,0,0,0,0,0,0,0,0,0,0,0,0,0,0,0,0,0,0,0,
0,0,0,0,0,0,0,0,0,0,0,0,0,0,0,0,0,0,0,0,0,0,0,0,0,0,0,0,0,0,0,0,0,0,0,0,0,0,0,0,0,0,0,0,0,0,0,0,0,0,0,0,0,0,0,0,0,0,0,0,0,0,0,0,0,0,0,0,0,0,0,0,0,0,0,0,0,0,0,0,0,0,0,0,0,0,0,0,0,0,0,0,0,0,0,0,0,0,0,0,
0,0,0,0,0,0,0,0,0,0,0,0,0,0,0,0,0,0,0,0,0,0,0,0,0,0,0,0,0,0,0,0,0,0,0,0,0,0,0,0,0,0,0,0,0,0,0,0,0,0,0,0,0,0,0,0,0,0,0,0,0,0,0,0,0,0,0,0,0,0,0,0,0,0,0,0,0,0,0,0,0,0,0,0,0,0,0,0,0,0,0,0,0,0,0,0,0,0,0,0,
0,0,0,0,0,0,0,0,0,0,0,0,0,0,0,0,0,0,0,0,0,0,0,0,0,0,0,0,0,0,0,0,0,0,0,0,0,0,0,0,0,0,0,0,0,0,0,0,0,0,0,0,0,0,0,0,0,0,0,0,0,0,0,0,0,0,0,0,0,0,0,0,0,0,0,0,0,0,0,0,0,0,0,0,0,0,0,0,0,0,0,0,0,0,0,0,0,0,0,0,
0,0,0,0,0,0,0,0,0,0,0,0,0,0,0,0,0,0,0,0,0,0,0,0,0,0,0,0,0,0,0,0,0,0,0,0,0,0,0,0,0,0,0,0,0,0,0,0,0,0,0,0,0,0,0,0,0,0,0,0,0,0,0,0,0,0,0,0,0,0,0,0,0,0,0,0,0,0,0,0,0,0,0,0,0,0,0,0,0,0,0,0,0,0,0,0,0,0,0,0,
0,0,0,0,0,0,0,0,0,0,0,0,0,0,0,0,0,0,0,0,0,0,0,0,0,0,0,0,0,0,0,0,0,0,0,0,0,0,0,0,0,0,0,0,0,0,0,0,0,0,0,0,0,0,0,0,0,0,0,0,0,0,0,0,0,0,0,0,0,0,0,0,0,0,0,0,0,0,0,0,0,0,0,0,0,0,0,0,0,0,0,0,0,0,0,0,0,0,0,0,
0,0,0,0,0,0,0,0,0,0,0,0,0,0,0,0,0,0,0,0,0,0,0,0,0,0,0,0,0,0,0,0,0,0,0,0,0,0,0,0,0,0,0,0,0,0,0,0,0,0,0,0,0,0,0,0,0,0,0,0,0,0,0,0,0,0,0,0,0,0,0,0,0,0,0,0,0,0,0,0,0,0,0,0,0,0,0,0,0,0,0,0,0,0,0,0,0,0,0,0,
0,0,0,0,0,0,0,0,0,0,0,0,0,0,0,0,0,0,0,0,0,0,0,0,0,0,0,0,0,0,0,0,0,0,0,0,0,0,0,0,0,0,0,0,0,0,0,0,0,0,0,0,0,0,0,0,0,0,0,0,0,0,0,0,0,0,0,0,0,0,0,0,0,0,0,0,0,0,0,0,0,0,0,0,0,0,0,0,0,0,0,0,0,0,0,0,0,0,0,0,
0,0,0,0,0,0,0,0,0,0,0,0,0,0,0,0,0,0,0,0,0,0,0,0,0,0,0,0,0,0,0,0,0,0,0,0,0,0,0,0,0,0,0,0,0,0,0,0,0,0,0,0,0,0,0,0,0,0,0,0,0,0,0,0,0,0,0,0,0,0,0,0,0,0,0,0,0,0,0,0,0,0,0,0,0,0,0,0,0,0,0,0,0,0,0,0,0,0,0,0,
0,0,0,0,0,0,0,0,0,0,0,0,0,0,0,0,0,0,0,0,0,0,0,0,0,0,0,0,0,0,0,0,0,0,0,0,0,0,0,0,0,0,0,0,0,0,0,0,0,0,0,0,0,0,0,0,0,0,0,0,0,0,0,0,0,0,0,0,0,0,0,0,0,0,0,0,0,0,0,0,0,0,0,0,0,0,0,0,0,0,0,0,0,0,0,0,0,0,0,0,
0,0,0,0,0,0,0,0,0,0,0,0,0,0,0,0,0,0,0,0,0,0,0,0,0,0,0,0,0,0,0,0,0,0,0,0,0,0,0,0,0,0,0,0,0,0,0,0,0,0,0,0,0,0,0,0,0,0,0,0,0,0,0,0,0,0,0,0,0,0,0,0,0,0,0,0,0,0,0,0,0,0,0,0,0,0,0,0,0,0,0,0,0,0,0,0,0,0,0,0,
0,0,0,0,0,0,0,0,0,0,0,0,0,0,0,0,0,0,0,0,0,0,0,0,0,0,0,0,0,0,0,0,0,0,0,0,0,0,0,0,0,0,0,0,0,0,0,0,0,0,0,0,0,0,0,0,0,0,0,0,0,0,0,0,0,0,0,0,0,0,0,0,0,0,0,0,0,0,0,0,0,0,0,0,0,0,0,0,0,0,0,0,0,0,0,0,0,0,0,0,
0,0,0,0,0,0,0,0,0,0,0,0,0,0,0,0,0,0,0,0,0,0,0,0,0,0,0,0,0,0,0,0,0,0,0,0,0,0,0,0,0,0,0,0,0,0,0,0,0,0,0,0,0,0,0,0,0,0,0,0,0,0,0,0,0,0,0,0,0,0,0,0,0,0,0,0,0,0,0,0,0,0,0,0,0,0,0,0,0,0,0,0,0,0,0,0,0,0,0,0,
0,0,0,0,0,0,0,0,0,0,0,0,0,0,0,0,0,0,0,0,0,0,0,0,0,0,0,0,0,0,0,0,0,0,0,0,0,0,0,0,0,0,0,0,0,0,0,0,0,0,0,0,0,0,0,0,0,0,0,0,0,0,0,0,0,0,0,0,0,0,0,0,0,0,0,0,0,0,0,0,0,0,0,0,0,0,0,0,0,0,0,0,0,0,0,0,0,0,0,0,
0,0,0,0,0,0,0,0,0,0,0,0,0,0,0,0,0,0,0,0,0,0,0,0,0,0,0,0,0,0,0,0,0,0,0,0,0,0,0,0,0,0,0,0,0,0,0,0,0,0,0,0,0,0,0,0,0,0,0,0,0,0,0,0,0,0,0,0,0,0,0,0,0,0,0,0,0,0,0,0,0,0,0,0,0,0,0,0,0,0,0,0,0,0,0,0,0,0,0,0,
0,0,0,0,0,0,0,0,0,0,0,0,0,0,0,0,0,0,0,0,0,0,0,0,0,0,0,0,0,0,0,0,0,0,0,0,0,0,0,0,0,0,0,0,0,0,0,0,0,0,0,0,0,0,0,0,0,0,0,0,0,0,0,0,0,0,0,0,0,0,0,0,0,0,0,0,0,0,0,0,0,0,0,0,0,0,0,0,0,0,0,0,0,0,0,0,0,0,0,0,
0,0,0,0,0,0,0,0,0,0,0,0,0,0,0,0,0,0,0,0,0,0,0,0,0,0,0,0,0,0,0,0,0,0,0,0,0,0,0,0,0,0,0,0,0,0,0,0,0,0,0,0,0,0,0,0,0,0,0,0,0,0,0,0,0,0,0,0,0,0,0,0,0,0,0,0,0,0,0,0,0,0,0,0,0,0,0,0,0,0,0,0,0,0,0,0,0,0,0,0,
0,0,0,0,0,0,0,0,0,0,0,0,0,0,0,0,0,0,0,0,0,0,0,0,0,0,0,0,0,0,0,0,0,0,0,0,0,0,0,0,0,0,0,0,0,0,0,0,0,0,0,0,0,0,0,0,0,0,0,0,0,0,0,0,0,0,0,0,0,0,0,0,0,0,0,0,0,0,0,0,0,0,0,0,0,0,0,0,0,0,0,0,0,0,0,0,0,0,0,0,
0,0,0,0,0,0,0,0,0,0,0,0,0,0,0,0,0,0,0,0,0,0,0,0,0,0,0,0,0,0,0,0,0,0,0,0,0,0,0,0,0,0,0,0,0,0,0,0,0,0,0,0,0,0,0,0,0,0,0,0,0,0,0,0,0,0,0,0,0,0,0,0,0,0,0,0,0,0,0,0,0,0,0,0,0,0,0,0,0,0,0,0,0,0,0,0,0,0,0,0,
0,0,0,0,0,0,0,0,0,0,0,0,0,0,0,0,0,0,0,0,0,0,0,0,0,0,0,0,0,0,0,0,0,0,0,0,0,0,0,0,0,0,0,0,0,0,0,0,0,0,0,0,0,0,0,0,0,0,0,0,0,0,0,0,0,0,0,0,0,0,0,0,0,0,0,0,0,0,0,0,0,0,0,0,0,0,0,0,0,0,0,0,0,0,0,0,0,0,0,0,
0,0,0,0,0,0,0,0,0,0,0,0,0,0,0,0,0,0,0,0,0,0,0,0,0,0,0,0,0,0,0,0,0,0,0,0,0,0,0,0,0,0,0,0,0,0,0,0,0,0,0,0,0,0,0,0,0,0,0,0,0,0,0,0,0,0,0,0,0,0,0,0,0,0,0,0,0,0,0,0,0,0,0,0,0,0,0,0,0,0,0,0,0,0,0,0,0,0,0,0,
0,0,0,0,0,0,0,0,0,0,0,0,0,0,0,0,0,0,0,0,0,0,0,0,0,0,0,0,0,0,0,0,0,0,0,0,0,0,0,0,0,0,0,0,0,0,0,0,0,0,0,0,0,0,0,0,0,0,0,0,0,0,0,0,0,0,0,0,0,0,0,0,0,0,0,0,0,0,0,0,0,0,0,0,0,0,0,0,0,0,0,0,0,0,0,0,0,0,0,0,
0,0,0,0,0,0,0,0,0,0,0,0,0,0,0,0,0,0,0,0,0,0,0,0,0,0,0,0,0,0,0,0,0,0,0,0,0,0,0,0,0,0,0,0,0,0,0,0,0,0,0,0,0,0,0,0,0,0,0,0,0,0,0,0,0,0,0,0,0,0,0,0,0,0,0,0,0,0,0,0,0,0,0,0,0,0,0,0,0,0,0,0,0,0,0,0,0,0,0,0,
0,0,0,0,0,0,0,0,0,0,0,0,0,0,0,0,0,0,0,0,0,0,0,0,0,0,0,0,0,0,0,0,0,0,0,0,0,0,0,0,0,0,0,0,0,0,0,0,0,0,0,0,0,0,0,0,0,0,0,0,0,0,0,0,0,0,0,0,0,0,0,0,0,0,0,0,0,0,0,0,0,0,0,0,0,0,0,0,0,0,0,0,0,0,0,0,0,0,0,0,
0,0,0,0,0,0,0,0,0,0,0,0,0,0,0,0,0,0,0,0,0,0,0,0,0,0,0,0,0,0,0,0,0,0,0,0,0,0,0,0,0,0,0,0,0,0,0,0,0,0,0,0,0,0,0,0,0,0,0,0,0,0,0,0,0,0,0,0,0,0,0,0,0,0,0,0,0,0,0,0,0,0,0,0,0,0,0,0,0,0,0,0,0,0,42,42,42,0,0,0,
0,0,0,0,0,0,0,0,0,0,0,0,0,0,0,0,0,0,0,0,0,0,0,0,0,0,0,0,0,0,0,0,0,0,0,0,0,0,0,0,0,0,0,0,0,0,0,0,0,0,0,0,0,0,0,0,0,42,42,42,42,42,42,0,0,0,0,0,0,0,0,0,0,0,0,0,0,0,0,0,0,0,0,0,0,0,0,0,0,0,0,0,0,42,42,42,0,0,0,0,
0,0,0,0,0,0,0,0,0,0,0,0,0,0,0,0,0,0,0,0,0,0,0,0,0,0,0,0,0,0,0,0,0,0,0,0,0,0,0,0,0,0,0,0,0,0,0,0,0,0,0,0,0,0,0,0,0,42,42,42,42,42,42,0,0,0,0,0,0,0,0,0,0,0,0,0,0,0,0,0,0,0,0,0,0,0,0,0,0,0,0,0,0,42,42,42,0,0,0,0,
0,0,0,0,0,0,0,0,0,0,0,0,0,0,0,0,0,0,0,0,0,0,0,0,0,0,0,0,0,0,0,0,0,0,0,0,0,0,0,0,0,0,0,0,0,0,0,0,0,0,0,0,0,0,0,0,0,42,42,42,42,42,42,0,0,0,0,0,0,0,0,0,0,0,0,0,0,0,0,0,0,0,0,0,0,0,0,0,0,0,42,42,42,42,42,42,42,0,0,0,
0,0,0,0,0,0,0,0,0,0,0,0,0,0,0,0,0,0,0,0,0,0,0,0,0,0,0,0,0,0,0,0,0,0,0,0,0,0,0,0,0,0,0,0,0,0,0,0,0,0,0,0,0,0,0,0,0,42,42,42,42,42,42,0,0,0,0,0,0,0,0,0,0,0,0,0,0,0,0,0,0,0,0,0,0,0,0,0,0,0,42,42,42,42,42,42,42,0,0,0,
0,0,0,0,0,0,0,0,0,0,0,0,0,0,0,0,0,0,0,0,0,0,0,0,0,0,0,0,0,0,0,0,0,0,0,0,0,0,0,0,0,0,0,0,0,0,0,0,0,0,0,0,0,0,0,0,0,42,42,42,42,42,42,0,0,0,0,0,0,0,0,0,0,0,0,0,0,0,0,0,0,0,0,0,0,0,0,0,0,42,42,42,42,42,42,0,42,0,0,0,
0,0,0,0,0,0,0,0,0,0,0,0,0,0,0,0,0,0,0,0,0,0,0,0,0,0,0,0,0,0,0,0,0,0,0,0,0,0,0,0,0,0,0,0,0,0,0,0,0,0,0,0,0,0,0,0,0,0,0,0,0,0,0,0,0,0,0,0,0,42,42,42,42,42,0,0,0,0,0,0,0,0,0,0,0,0,0,0,42,42,42,42,42,42,0,42,42,0,0,0,
0,0,0,0,0,0,0,0,0,0,0,0,0,0,0,0,0,0,0,0,0,0,0,0,0,0,0,0,0,0,0,0,0,0,0,0,0,0,0,0,0,0,0,0,0,0,0,0,0,0,0,0,0,0,0,0,0,0,0,0,0,0,0,0,0,0,0,0,0,42,42,42,0,42,42,42,0,0,42,42,42,42,0,42,42,0,0,0,42,42,42,42,42,42,42,42,0,0,0,0,
0,0,0,0,0,0,0,0,0,0,0,0,0,0,0,0,0,0,0,0,0,0,0,0,0,0,0,0,0,0,0,0,0,0,0,0,0,0,0,0,0,0,0,0,0,0,0,0,0,0,0,0,0,0,0,0,0,0,0,0,0,0,0,0,0,0,0,42,42,42,42,42,42,42,42,42,42,42,42,42,42,42,42,42,42,42,42,42,42,42,42,42,42,42,0,0,0,0,0,0,
0,0,0,0,0,0,0,0,0,0,0,0,0,0,0,0,0,0,0,0,0,0,0,0,0,0,0,0,0,0,0,0,0,0,0,0,0,0,0,0,0,0,0,0,0,0,0,0,0,0,0,0,0,0,0,0,0,0,0,0,0,0,0,0,0,0,0,42,42,42,42,42,42,42,42,42,42,42,42,42,42,42,42,42,42,42,42,42,42,42,42,42,42,0,0,0,0,0,0,0,
0,0,0,0,0,0,0,0,0,0,0,0,0,0,0,0,0,0,0,0,0,0,0,0,0,0,0,0,0,0,0,0,0,0,0,0,0,0,0,0,0,0,0,0,0,0,0,0,0,0,0,0,0,0,0,0,0,0,0,0,0,0,0,0,0,0,0,0,42,42,42,42,42,42,42,42,42,42,42,42,42,42,42,42,42,42,42,42,42,42,0,0,0,0,0,0,0,0,0,0,
0,0,0,0,0,0,0,0,0,0,0,0,0,0,0,0,0,0,0,0,0,0,0,0,0,0,0,0,0,0,0,0,0,0,0,0,0,0,0,0,0,0,0,0,0,0,0,0,0,0,0,0,0,0,0,0,0,0,0,0,0,0,0,0,0,0,0,0,0,42,42,42,42,42,42,42,42,42,42,42,42,42,42,42,42,42,42,42,42,42,0,0,0,0,0,0,0,0,0,0,
0,0,0,0,0,0,0,0,0,0,0,0,0,0,0,0,0,0,0,0,0,0,0,0,0,0,0,0,0,0,0,0,0,0,0,0,0,0,0,0,0,0,0,0,0,0,0,0,0,0,0,0,0,0,0,0,0,0,0,0,0,0,0,0,0,0,0,0,0,42,42,42,42,42,42,42,42,0,42,42,42,42,42,42,42,42,42,42,0,0,0,0,0,0,0,0,0,0,0,0,
0,0,0,0,0,0,0,0,0,0,0,0,0,0,0,0,0,0,0,0,0,0,0,0,0,0,0,0,0,0,0,0,0,0,0,0,0,0,0,0,0,0,0,0,0,0,0,0,0,0,0,0,0,0,0,0,0,0,0,0,0,0,0,0,0,0,0,0,0,0,42,42,42,42,42,0,42,42,42,42,42,42,42,42,42,42,0,0,0,0,0,0,0,0,0,0,0,0,0,0,
0,0,0,0,0,0,0,0,0,0,0,0,0,0,0,0,0,0,0,0,0,0,0,0,0,0,0,0,0,0,0,0,0,0,0,0,0,0,0,0,0,0,0,0,0,0,0,0,0,0,0,0,0,0,0,0,0,0,0,0,0,0,0,0,0,0,0,0,0,0,0,0,0,0,0,0,0,0,0,0,0,0,0,0,0,0,0,0,0,0,0,0,0,0,0,0,0,0,0,0,
0,0,0,0,0,0,0,0,0,0,0,0,0,0,0,0,0,0,0,0,0,0,0,0,0,0,0,0,0,0,0,0,0,0,0,0,0,0,0,0,0,0,0,0,0,0,0,0,0,0,0,0,0,0,0,0,0,0,0,0,0,0,0,0,0,0,0,0,0,0,0,0,0,0,0,0,0,0,0,0,0,0,0,0,0,0,0,0,0,0,0,0,0,0,0,0,0,0,0,0,
0,0,0,0,0,0,0,0,0,0,0,0,0,0,0,0,0,0,0,0,0,0,0,0,0,0,0,0,0,0,0,0,0,0,0,0,0,0,0,0,0,0,0,0,0,0,0,0,0,0,0,0,0,0,0,0,0,0,0,0,0,0,0,0,0,0,0,0,0,0,0,0,0,0,0,0,0,0,0,0,0,0,0,0,0,0,0,0,0,0,0,0,0,0,0,0,0,0,0,0,
0,0,0,0,0,0,0,0,0,0,0,0,0,0,0,0,0,0,0,0,0,0,0,0,0,0,0,0,0,0,0,0,0,0,0,0,0,0,0,0,0,0,0,0,0,0,0,0,0,0,0,0,0,0,0,0,0,0,0,0,0,0,0,0,0,0,0,0,0,0,0,0,0,0,0,0,0,0,0,0,0,0,0,0,0,0,0,0,0,0,0,0,0,0,0,0,0,0,0,0,
0,0,0,0,0,0,0,0,0,0,0,0,0,0,0,0,0,0,0,0,0,0,0,0,0,0,0,0,0,0,0,0,0,0,0,0,0,0,0,0,0,0,0,0,0,0,0,0,0,0,0,0,0,0,0,0,0,0,0,0,0,0,0,0,0,0,0,0,0,0,0,0,0,0,0,0,0,0,0,0,0,0,0,0,0,0,0,0,0,0,0,0,0,0,0,0,0,0,0,0,
0,0,0,0,0,0,0,0,0,0,0,0,0,0,0,0,0,0,0,0,0,0,0,0,0,0,0,0,0,0,0,0,0,0,0,0,0,0,0,0,0,0,0,0,0,0,0,0,0,0,0,0,0,0,0,0,0,0,0,0,0,0,0,0,0,0,0,0,0,0,0,0,0,0,0,0,0,0,0,0,0,0,0,0,0,0,0,0,0,0,0,0,0,0,0,0,0,0,0,0,
0,0,0,0,0,0,0,0,0,0,0,0,0,0,0,0,0,0,0,0,0,0,0,0,0,0,0,0,0,0,0,0,0,0,0,0,0,0,0,0,0,0,0,0,0,0,0,0,0,0,0,0,0,0,0,0,0,0,0,0,0,0,0,0,0,0,0,0,0,0,0,0,0,0,0,0,0,0,0,0,0,0,0,0,0,0,0,0,0,0,0,0,0,0,0,0,0,0,0,0,
0,0,0,0,0,0,0,0,0,0,0,0,0,0,0,0,0,0,0,0,0,0,0,0,0,0,0,0,0,0,0,0,0,0,0,0,0,0,0,0,0,0,0,0,0,0,0,0,0,0,0,0,0,0,0,0,0,0,0,0,0,0,0,0,0,0,0,0,0,0,0,0,0,0,0,0,0,0,0,0,0,0,0,0,0,0,0,0,0,0,0,0,0,0,0,0,0,0,0,0,
0,0,0,0,0,0,0,0,0,0,0,0,0,0,0,0,0,0,0,0,0,0,0,0,0,0,0,0,0,0,0,0,0,0,0,0,0,0,0,0,0,0,0,0,0,0,0,0,0,0,0,0,0,0,0,0,0,0,0,0,0,0,0,0,0,0,0,0,0,0,0,0,0,0,0,0,0,0,0,0,0,0,0,0,0,0,0,0,0,0,0,0,0,0,0,0,0,0,0,0,
0,0,0,0,0,0,0,0,0,0,0,0,0,0,0,0,0,0,0,0,0,0,0,0,0,0,0,0,0,0,0,0,0,0,0,0,0,0,0,0,0,0,0,0,0,0,0,0,0,0,0,0,0,0,0,0,0,0,0,0,0,0,0,0,0,0,0,0,0,0,0,0,0,0,0,0,0,0,0,0,0,0,0,0,0,0,0,0,0,0,0,0,0,0,0,0,0,0,0,0,
0,0,0,0,0,0,0,0,0,0,0,0,0,0,0,0,0,0,0,0,0,0,0,0,0,0,0,0,0,0,0,0,0,0,0,0,0,0,0,0,0,0,0,0,0,0,0,0,0,0,0,0,0,0,0,0,0,0,0,0,0,0,0,0,0,0,0,0,0,0,0,0,0,0,0,0,0,0,0,0,0,0,0,0,0,0,0,0,0,0,0,0,0,0,0,0,0,0,0,0
</data>
 </layer>
</map>
